(1001)
(T1 D=3.175 CR=0 - ZMIN=-2 - flat end mill)
G90 G94
G17
G21
(When using Fusion 360 for Personal Use, the feedrate of)
(rapid moves is reduced to match the feedrate of cutting)
(moves, which can increase machining time. Unrestricted rapid)
(moves are available with a Fusion 360 Subscription.)
G28 G91 Z0
G90

(2D Adaptive4)
T1
S10000 M3
G17 G90 G94
G54
M8
G0 X8.521 Y10.005
Z15
G1 Z5 F800
Z0.55
S5000
G3 X10.607 Y8.613 Z0.448 I1.55 J0.063 F500
X11.289 Y11.024 Z0.346 I-0.536 J1.454
X8.789 Y10.932 Z0.244 I-1.217 J-0.956
X9.644 Y8.584 Z0.142 I1.282 J-0.863
X11.613 Y10.117 Z0.04 I0.427 J1.484
X9.551 Y11.518 Z-0.062 I-1.541 J-0.05
X8.853 Y9.128 Z-0.164 I0.521 J-1.449
X11.339 Y9.198 Z-0.266 I1.218 J0.94
X10.508 Y11.54 Z-0.368 I-1.268 J0.869
X8.538 Y10.031 Z-0.47 I-0.436 J-1.472
X10.577 Y8.622 Z-0.572 I1.533 J0.037
X11.291 Y10.993 Z-0.674 I-0.506 J1.445
X8.818 Y10.943 Z-0.776 I-1.218 J-0.925
X9.625 Y8.608 Z-0.878 I1.253 J-0.874
X11.596 Y10.092 Z-0.98 I0.446 J1.46
X9.58 Y11.51 Z-1.082 I-1.524 J-0.025
X8.852 Y9.158 Z-1.184 I0.492 J-1.441
X11.311 Y9.188 Z-1.286 I1.219 J0.91
X10.527 Y11.516 Z-1.388 I-1.239 J0.879
X8.555 Y10.056 Z-1.49 I-0.455 J-1.447
X10.548 Y8.63 Z-1.592 I1.515 J0.012
X11.291 Y10.962 Z-1.694 I-0.477 J1.436
X8.847 Y10.953 Z-1.796 I-1.219 J-0.895
X9.607 Y8.632 Z-1.898 I1.224 J-0.884
X11.579 Y10.067 Z-2 I0.464 J1.435
X8.562 Y10.067 I-1.508 J0
X11.579 Y10.067 I1.508 J0
S10000
G1 X11.592 Y10.588 F800
X11.59 Y10.738
X11.558 Y10.885
X11.504 Y11.024
X11.432 Y11.156
X11.345 Y11.279
X11.246 Y11.391
X11.136 Y11.493
X11.016 Y11.583
X10.889 Y11.662
X10.754 Y11.729
X10.615 Y11.784
X10.471 Y11.826
X10.324 Y11.855
X10.175 Y11.872
X10.025 Y11.876
X9.875 Y11.867
X9.726 Y11.845
X9.58 Y11.812
X9.438 Y11.766
X9.299 Y11.708
X9.166 Y11.639
X9.039 Y11.559
X8.919 Y11.469
X8.807 Y11.369
X8.704 Y11.26
X8.61 Y11.143
X8.526 Y11.019
X8.452 Y10.888
X8.39 Y10.752
X8.339 Y10.611
X8.3 Y10.466
X8.273 Y10.318
X8.259 Y10.169
X8.256 Y10.019
X8.267 Y9.869
X8.289 Y9.721
X8.324 Y9.575
X8.37 Y9.433
X8.429 Y9.294
X8.498 Y9.161
X8.578 Y9.035
X8.669 Y8.915
X8.769 Y8.803
X8.878 Y8.7
X8.995 Y8.606
X9.119 Y8.522
X9.25 Y8.449
X9.386 Y8.387
X9.527 Y8.336
X9.672 Y8.297
X9.82 Y8.27
X9.969 Y8.255
X10.119 Y8.253
X10.269 Y8.263
X10.417 Y8.286
X10.563 Y8.321
X10.706 Y8.367
X10.844 Y8.426
X10.977 Y8.495
X11.103 Y8.575
X11.223 Y8.666
X11.335 Y8.766
X11.438 Y8.875
X11.532 Y8.992
X11.616 Y9.116
X11.689 Y9.247
X11.751 Y9.383
X11.802 Y9.524
X11.845 Y9.668
X11.881 Y9.815
X11.911 Y9.962
X11.934 Y10.11
X11.948 Y10.259
X11.952 Y10.409
X11.943 Y10.559
X11.922 Y10.707
X11.889 Y10.854
X11.843 Y10.996
X11.785 Y11.135
X11.715 Y11.267
X11.634 Y11.393
X11.542 Y11.512
X11.441 Y11.623
X11.331 Y11.725
X11.213 Y11.818
X11.089 Y11.902
X10.958 Y11.975
X10.822 Y12.038
X10.681 Y12.091
X10.537 Y12.132
X10.391 Y12.163
X10.242 Y12.184
X10.092 Y12.193
X9.942 Y12.191
X9.793 Y12.179
X9.645 Y12.155
X9.498 Y12.121
X9.355 Y12.077
X9.215 Y12.022
X9.08 Y11.958
X8.949 Y11.885
X8.824 Y11.802
X8.705 Y11.71
X8.593 Y11.611
X8.488 Y11.503
X8.391 Y11.389
X8.302 Y11.268
X8.222 Y11.141
X8.151 Y11.009
X8.09 Y10.872
X8.038 Y10.731
X7.997 Y10.587
X7.965 Y10.441
X7.944 Y10.292
X7.933 Y10.143
Y9.993
X7.944 Y9.843
X7.965 Y9.695
X7.996 Y9.548
X8.037 Y9.404
X8.089 Y9.263
X8.15 Y9.126
X8.221 Y8.994
X8.301 Y8.867
X8.389 Y8.745
X8.486 Y8.631
X8.59 Y8.523
X8.702 Y8.423
X8.821 Y8.332
X8.946 Y8.248
X9.076 Y8.174
X9.211 Y8.109
X9.351 Y8.053
X9.493 Y8.008
X9.639 Y7.972
X9.787 Y7.947
X9.936 Y7.933
X10.086 Y7.929
X10.236 Y7.935
X10.385 Y7.952
X10.533 Y7.979
X10.678 Y8.017
X10.82 Y8.064
X10.959 Y8.122
X11.093 Y8.189
X11.222 Y8.265
X11.346 Y8.35
X11.463 Y8.444
X11.573 Y8.546
X11.676 Y8.655
X11.771 Y8.771
X11.858 Y8.893
X11.937 Y9.021
X12.008 Y9.153
X12.071 Y9.289
X12.128 Y9.428
X12.177 Y9.569
X12.218 Y9.714
X12.25 Y9.86
X12.274 Y10.008
X12.289 Y10.157
X12.295 Y10.307
X12.291 Y10.457
X12.277 Y10.607
X12.253 Y10.755
X12.219 Y10.901
X12.175 Y11.044
X12.121 Y11.184
X12.057 Y11.32
X11.984 Y11.451
X11.902 Y11.576
X11.811 Y11.696
X11.713 Y11.809
X11.607 Y11.915
X11.494 Y12.014
X11.374 Y12.105
X11.249 Y12.187
X11.119 Y12.261
X10.984 Y12.326
X10.845 Y12.383
X10.702 Y12.43
X10.557 Y12.469
X10.41 Y12.497
X10.261 Y12.517
X10.112 Y12.526
X9.962
X9.812 Y12.517
X9.663 Y12.499
X9.516 Y12.471
X9.37 Y12.435
X9.227 Y12.389
X9.087 Y12.335
X8.951 Y12.271
X8.819 Y12.2
X8.692 Y12.121
X8.57 Y12.034
X8.453 Y11.94
X8.342 Y11.839
X8.237 Y11.732
X8.14 Y11.618
X8.049 Y11.498
X7.966 Y11.373
X7.891 Y11.244
X7.823 Y11.11
X7.764 Y10.972
X7.713 Y10.831
X7.671 Y10.687
X7.638 Y10.54
X7.614 Y10.392
X7.599 Y10.243
X7.592 Y10.093
X7.595 Y9.943
X7.607 Y9.794
X7.628 Y9.645
X7.658 Y9.498
X7.697 Y9.353
X7.745 Y9.211
X7.801 Y9.072
X7.865 Y8.936
X7.937 Y8.805
X8.017 Y8.678
X8.105 Y8.557
X8.2 Y8.441
X8.302 Y8.331
X8.411 Y8.227
X8.525 Y8.13
X8.645 Y8.039
X8.77 Y7.957
X8.9 Y7.882
X9.034 Y7.816
X9.173 Y7.757
X9.314 Y7.707
X9.458 Y7.665
X9.604 Y7.633
X9.753 Y7.609
X9.902 Y7.594
X10.052 Y7.589
X10.202 Y7.592
X10.351 Y7.605
X10.5 Y7.626
X10.647 Y7.656
X10.791 Y7.696
X10.933 Y7.744
X11.072 Y7.8
X11.208 Y7.865
X11.339 Y7.938
X11.465 Y8.018
X11.587 Y8.106
X11.703 Y8.202
X11.813 Y8.304
X11.916 Y8.412
X12.014 Y8.526
X12.105 Y8.645
X12.19 Y8.769
X12.268 Y8.897
X12.339 Y9.029
X12.403 Y9.165
X12.461 Y9.303
X12.511 Y9.445
X12.553 Y9.588
X12.588 Y9.734
X12.615 Y9.882
X12.634 Y10.031
X12.644 Y10.18
X12.647 Y10.33
X12.641 Y10.48
X12.626 Y10.629
X12.602 Y10.778
X12.57 Y10.924
X12.53 Y11.069
X12.481 Y11.21
X12.423 Y11.349
X12.358 Y11.484
X12.285 Y11.615
X12.204 Y11.741
X12.116 Y11.863
X12.021 Y11.979
X11.919 Y12.089
X11.811 Y12.193
X11.697 Y12.291
X11.578 Y12.381
X11.453 Y12.465
X11.324 Y12.542
X11.191 Y12.611
X11.054 Y12.672
X10.914 Y12.726
X10.771 Y12.771
X10.626 Y12.809
X10.479 Y12.838
X10.33 Y12.859
X10.181 Y12.872
X10.031 Y12.876
X9.881 Y12.872
X9.731 Y12.86
X9.583 Y12.84
X9.435 Y12.812
X9.29 Y12.776
X9.147 Y12.732
X9.006 Y12.68
X8.868 Y12.621
X8.734 Y12.555
X8.603 Y12.481
X8.476 Y12.4
X8.354 Y12.313
X8.237 Y12.22
X8.125 Y12.12
X8.019 Y12.014
X7.918 Y11.903
X7.824 Y11.786
X7.735 Y11.665
X7.653 Y11.539
X7.579 Y11.409
X7.511 Y11.276
X7.45 Y11.138
X7.397 Y10.998
X7.351 Y10.855
X7.313 Y10.71
X7.283 Y10.563
X7.26 Y10.415
X7.246 Y10.266
X7.239 Y10.116
X7.24 Y9.966
X7.25 Y9.816
X7.267 Y9.667
X7.292 Y9.519
X7.325 Y9.373
X7.365 Y9.228
X7.413 Y9.086
X7.469 Y8.947
X7.532 Y8.811
X7.602 Y8.678
X7.679 Y8.55
X7.763 Y8.425
X7.853 Y8.305
X7.949 Y8.19
X8.052 Y8.08
X8.159 Y7.976
X8.273 Y7.878
X8.391 Y7.786
X8.514 Y7.7
X8.642 Y7.621
X8.773 Y7.549
X8.909 Y7.484
X9.047 Y7.426
X9.188 Y7.375
X9.332 Y7.333
X9.478 Y7.297
X9.625 Y7.27
X9.774 Y7.25
X9.923 Y7.239
X10.073 Y7.235
X10.223 Y7.239
X10.373 Y7.251
X10.521 Y7.271
X10.669 Y7.299
X10.815 Y7.334
X10.958 Y7.378
X11.099 Y7.428
X11.238 Y7.486
X11.373 Y7.552
X11.504 Y7.624
X11.631 Y7.703
X11.754 Y7.789
X11.873 Y7.881
X11.986 Y7.979
X12.095 Y8.083
X12.198 Y8.191
X12.296 Y8.305
X12.389 Y8.423
X12.475 Y8.546
X12.556 Y8.672
X12.631 Y8.802
X12.699 Y8.936
X12.761 Y9.072
X12.816 Y9.212
X12.865 Y9.354
X12.906 Y9.498
X12.941 Y9.644
X12.969 Y9.791
X12.99 Y9.94
X13.003 Y10.089
X13.009 Y10.239
X13.007 Y10.389
X12.998 Y10.539
X12.982 Y10.688
X12.958 Y10.836
X12.926 Y10.982
X12.887 Y11.127
X12.84 Y11.27
X12.787 Y11.41
X12.76 Y11.471
X12.716 Y11.559
X12.665 Y11.645
X12.608 Y11.725
X12.261 Y12.179
X12.22 Y12.225
X12.179 Y12.261
X11.632 Y12.68
X11.593 Y12.709
X11.553 Y12.732
X11.475 Y12.766
X10.846 Y13.026
X10.803 Y13.038
X10.76 Y13.047
X10.06 Y13.139
X9.768 Y13.148
X9.618 Y13.146
X9.469 Y13.134
X9.32 Y13.113
X9.173 Y13.083
X9.029 Y13.044
X8.886 Y12.998
X8.746 Y12.943
X8.609 Y12.882
X8.476 Y12.813
X8.347 Y12.737
X8.221 Y12.655
X8.1 Y12.567
X7.983 Y12.473
X7.871 Y12.373
X7.764 Y12.268
X7.662 Y12.158
X7.565 Y12.044
X7.474 Y11.924
X7.389 Y11.801
X7.31 Y11.673
X7.237 Y11.542
X7.171 Y11.408
X7.111 Y11.27
X7.057 Y11.13
X7.01 Y10.988
X6.97 Y10.843
X6.936 Y10.697
X6.91 Y10.549
X6.891 Y10.4
X6.879 Y10.251
X6.874 Y10.101
X6.875 Y9.951
X6.884 Y9.801
X6.9 Y9.652
X6.923 Y9.504
X6.952 Y9.357
X6.989 Y9.211
X7.033 Y9.068
X7.083 Y8.927
X7.14 Y8.788
X7.203 Y8.652
X7.213 Y8.633
X7.31 Y8.475
X7.43 Y8.334
X7.569 Y8.212
X7.62 Y8.174
X7.702 Y8.108
X8.189 Y7.702
X8.331 Y7.583
X8.488 Y7.446
X8.606 Y7.354
X8.729 Y7.267
X8.858 Y7.191
X8.991 Y7.123
X9.129 Y7.064
X9.271 Y7.014
X9.415 Y6.972
X9.561 Y6.939
X9.709 Y6.913
X9.858 Y6.895
X10.007 Y6.885
X10.157 Y6.883
X10.307 Y6.889
X10.457 Y6.902
X10.605 Y6.922
X10.753 Y6.949
X10.899 Y6.983
X11.043 Y7.025
X11.185 Y7.073
X11.325 Y7.128
X11.462 Y7.189
X11.595 Y7.257
X11.726 Y7.332
X11.852 Y7.412
X11.976 Y7.497
X12.095 Y7.589
X12.21 Y7.685
X12.32 Y7.786
X12.426 Y7.893
X12.527 Y8.004
X12.623 Y8.119
X12.714 Y8.238
X12.8 Y8.361
X12.88 Y8.488
X12.955 Y8.618
X13.024 Y8.751
X13.044 Y8.794
X13.11 Y8.965
X13.149 Y9.143
X13.162 Y9.325
Y9.431
X13.152 Y9.903
X13.139 Y10.06
X13.047 Y10.76
X13.038 Y10.803
X13.026 Y10.846
X12.766 Y11.475
X12.732 Y11.553
X12.709 Y11.593
X12.68 Y11.632
X12.608 Y11.725
X12.566 Y11.768 Z-1.976
X12.517 Y11.801 Z-1.952
X12.185 Y11.985 Z-1.8
X11.968 Y12.105
X10.721 Y12.794
X10.503 Y12.914
X10.161 Y13.103 Z-1.957
X10.112 Y13.125 Z-1.978
X10.06 Y13.139 Z-2
X9.903 Y13.152
X9.431 Y13.162
X8.912 Y13.163
X8.762 Y13.155
X8.614 Y13.131
X8.469 Y13.093
X8.328 Y13.043
X8.19 Y12.983
X8.057 Y12.913
X7.929 Y12.836
X7.805 Y12.751
X7.687 Y12.659
X7.573 Y12.561
X7.465 Y12.458
X7.361 Y12.349
X7.263 Y12.235
X7.171 Y12.117
X7.084 Y11.995
X7.003 Y11.869
X6.928 Y11.739
X6.858 Y11.606
X6.794 Y11.47
X6.737 Y11.332
X6.685 Y11.191
X6.64 Y11.048
X6.601 Y10.903
X6.568 Y10.757
X6.542 Y10.609
X6.521 Y10.46
X6.507 Y10.311
X6.5 Y10.161
X6.498 Y10.011
X6.504 Y9.861
X6.515 Y9.712
X6.533 Y9.563
X6.557 Y9.415
X6.571 Y9.349
X6.64 Y9.124
X6.749 Y8.916
X6.896 Y8.732
X7.074 Y8.579
X7.203 Y8.488
X7.569 Y8.212
G3 X8.011 Y8.289 Z-1.8 I0.182 J0.26
G1 X8.04 Y8.338
X8.059 Y8.391
X8.093 Y8.522
X9.163 Y12.593
X9.208 Y12.764
X9.218 Y12.834
G3 X8.912 Y13.163 Z-2 I-0.317 J0.011
G1 X8.331
X8.181 Y13.155
X8.034 Y13.128
X7.89 Y13.084
X7.752 Y13.026
X7.619 Y12.956
X7.491 Y12.878
X7.369 Y12.791
X7.252 Y12.696
X7.141 Y12.595
X7.036 Y12.489
X6.936 Y12.377
X6.842 Y12.26
X6.754 Y12.139
X6.671 Y12.014
X6.594 Y11.885
X6.522 Y11.753
X6.457 Y11.618
X6.396 Y11.479
X6.34 Y11.335
X6.29 Y11.188
X6.246 Y11.037
X6.208 Y10.883
X6.176 Y10.727
X6.151 Y10.57
X6.132 Y10.411
X6.12 Y10.25
X6.115 Y10.1
X6.117 Y9.95
X6.126 Y9.8
X6.13 Y9.756
X6.188 Y9.489
X6.303 Y9.241
X6.468 Y9.023
X6.677 Y8.847
X7.074 Y8.579
G3 X7.514 Y8.67 Z-1.8 I0.174 J0.265
G1 X7.538 Y8.715
X7.555 Y8.762
X7.593 Y8.904
X8.581 Y12.593
X8.627 Y12.763
X8.634 Y12.798
X8.637 Y12.834
G3 X8.331 Y13.163 Z-2 I-0.317 J0.011
G1 X7.812
X7.662 Y13.155
X7.516 Y13.122
X7.374 Y13.072
X7.239 Y13.008
X7.109 Y12.932
X6.986 Y12.847
X6.869 Y12.753
X6.758 Y12.652
X6.652 Y12.546
X6.553 Y12.433
X6.459 Y12.316
X6.372 Y12.194
X6.29 Y12.069
X6.213 Y11.94
X6.142 Y11.807
X6.076 Y11.67
X6.015 Y11.527
X5.958 Y11.378
X5.906 Y11.225
X5.861 Y11.067
X5.822 Y10.907
X5.79 Y10.748
X5.765 Y10.59
X5.748 Y10.441
X5.739 Y10.292
X5.738 Y10.142
X5.739 Y10.095
X5.786 Y9.806
X5.898 Y9.535
X6.069 Y9.297
X6.292 Y9.106
X6.677 Y8.847
G3 X7.114 Y8.948 Z-1.8 I0.168 J0.269
G1 X7.137 Y8.991
X7.152 Y9.037
X7.19 Y9.183
X8.064 Y12.593
X8.108 Y12.766
X8.118 Y12.834
G3 X7.812 Y13.163 Z-2 I-0.317 J0.011
G1 X7.34
X7.19 Y13.155
X7.045 Y13.119
X6.905 Y13.064
X6.772 Y12.996
X6.645 Y12.916
X6.524 Y12.826
X6.41 Y12.729
X6.302 Y12.625
X6.201 Y12.514
X6.105 Y12.399
X6.016 Y12.278
X5.932 Y12.154
X5.854 Y12.026
X5.782 Y11.894
X5.713 Y11.756
X5.649 Y11.612
X5.59 Y11.462
X5.537 Y11.31
X5.492 Y11.16
X5.454 Y11.01
X5.423 Y10.863
X5.399 Y10.715
X5.383 Y10.566
X5.375 Y10.416
X5.377 Y10.265
X5.44 Y9.965
X5.575 Y9.689
X5.773 Y9.454
X6.022 Y9.274
X6.13 Y9.214
X6.292 Y9.106
G3 X6.729 Y9.207 Z-1.8 I0.168 J0.269
G1 X6.752 Y9.251
X6.768 Y9.298
X6.804 Y9.443
X7.593 Y12.592
X7.637 Y12.768
X7.647 Y12.834
G3 X7.34 Y13.163 Z-2 I-0.317 J0.011
G1 X6.916
X6.766 Y13.155
X6.621 Y13.12
X6.481 Y13.066
X6.348 Y12.997
X6.222 Y12.915
X6.102 Y12.825
X5.989 Y12.726
X5.883 Y12.62
X5.783 Y12.508
X5.689 Y12.391
X5.601 Y12.269
X5.52 Y12.144
X5.444 Y12.014
X5.373 Y11.882
X5.308 Y11.746
X5.249 Y11.607
X5.196 Y11.467
X5.149 Y11.324
X5.109 Y11.18
X5.075 Y11.034
X5.048 Y10.886
X5.032 Y10.737
X5.024 Y10.587
X5.025 Y10.547
X5.056 Y10.282
X5.142 Y10.03
X5.28 Y9.802
X5.463 Y9.608
X5.682 Y9.457
X6.022 Y9.274
G3 X6.448 Y9.414 Z-1.8 I0.143 J0.283
G1 X6.464 Y9.45
X6.475 Y9.487
X6.512 Y9.653
X7.173 Y12.591
X7.215 Y12.775
X7.222 Y12.834
G3 X6.916 Y13.163 Z-2 I-0.317 J0.011
G1 X6.515
X6.366 Y13.155
X6.219 Y13.124
X6.078 Y13.071
X5.945 Y13.003
X5.819 Y12.922
X5.699 Y12.831
X5.587 Y12.732
X5.481 Y12.626
X5.381 Y12.513
X5.288 Y12.396
X5.201 Y12.273
X5.121 Y12.147
X5.046 Y12.017
X4.977 Y11.883
X4.915 Y11.747
X4.859 Y11.608
X4.809 Y11.466
X4.767 Y11.323
X4.732 Y11.177
X4.707 Y11.029
X4.689 Y10.88
X4.683 Y10.73
X4.684 Y10.702
X4.72 Y10.441
X4.81 Y10.192
X4.95 Y9.969
X5.133 Y9.779
X5.352 Y9.632
X5.682 Y9.457
G3 X6.108 Y9.6 Z-1.8 I0.141 J0.284
G1 X6.123 Y9.636
X6.134 Y9.674
X6.17 Y9.84
X6.774 Y12.591
X6.814 Y12.777
X6.822 Y12.834
G3 X6.515 Y13.163 Z-2 I-0.317 J0.011
G1 X6.083
X5.933 Y13.155
X5.787 Y13.119
X5.648 Y13.063
X5.516 Y12.992
X5.391 Y12.908
X5.274 Y12.815
X5.163 Y12.714
X5.059 Y12.606
X4.962 Y12.492
X4.871 Y12.372
X4.787 Y12.248
X4.71 Y12.12
X4.639 Y11.987
X4.575 Y11.852
X4.517 Y11.713
X4.467 Y11.572
X4.424 Y11.428
X4.391 Y11.282
X4.367 Y11.134
X4.352 Y10.985
Y10.934
X4.378 Y10.657
X4.465 Y10.393
X4.608 Y10.154
X4.801 Y9.953
X5.033 Y9.799
X5.187 Y9.719
X5.352 Y9.632
G3 X5.776 Y9.78 Z-1.8 I0.138 J0.286
G1 X5.792 Y9.817
X5.802 Y9.856
X5.835 Y10.02
X6.345 Y12.59
X6.383 Y12.783
X6.389 Y12.834
G3 X6.083 Y13.163 Z-2 I-0.317 J0.011
G1 X5.691
X5.541 Y13.155
X5.395 Y13.122
X5.255 Y13.067
X5.122 Y12.997
X4.997 Y12.914
X4.88 Y12.82
X4.77 Y12.719
X4.667 Y12.61
X4.57 Y12.495
X4.481 Y12.374
X4.399 Y12.248
X4.324 Y12.118
X4.256 Y11.985
X4.196 Y11.847
X4.144 Y11.707
X4.1 Y11.563
X4.066 Y11.417
X4.041 Y11.269
X4.028 Y11.12
Y11.086
X4.057 Y10.809
X4.146 Y10.546
X4.291 Y10.309
X4.485 Y10.109
X4.718 Y9.957
X5.033 Y9.799
G3 X5.455 Y9.951 Z-1.8 I0.135 J0.287
G1 X5.47 Y9.989
X5.48 Y10.028
X5.511 Y10.192
X5.955 Y12.59
X5.992 Y12.787
X5.997 Y12.834
G3 X5.691 Y13.163 Z-2 I-0.317 J0.011
G1 X5.264
X5.114 Y13.155
X4.969 Y13.116
X4.831 Y13.057
X4.701 Y12.983
X4.578 Y12.897
X4.463 Y12.8
X4.356 Y12.696
X4.256 Y12.584
X4.163 Y12.466
X4.078 Y12.342
X4.001 Y12.213
X3.932 Y12.08
X3.871 Y11.943
X3.818 Y11.803
X3.774 Y11.66
X3.742 Y11.513
X3.72 Y11.365
X3.71 Y11.215
Y11.203
X3.75 Y10.909
X3.857 Y10.633
X4.027 Y10.39
X4.248 Y10.193
X4.51 Y10.054
G3 X4.914 Y10.249 Z-1.8 I0.105 J0.3
G1 X4.922 Y10.275
X4.977 Y10.489
X5.516 Y12.593
X5.56 Y12.766
X5.57 Y12.834
G3 X5.264 Y13.163 Z-2 I-0.317 J0.011
G1 X4.873
X4.723 Y13.155
X4.578 Y13.116
X4.44 Y13.057
X4.31 Y12.982
X4.189 Y12.894
X4.075 Y12.797
X3.969 Y12.69
X3.872 Y12.576
X3.782 Y12.456
X3.701 Y12.33
X3.628 Y12.199
X3.565 Y12.063
X3.51 Y11.923
X3.464 Y11.78
X3.432 Y11.634
X3.409 Y11.485
X3.399 Y11.336
Y11.312
X3.441 Y11.02
X3.55 Y10.747
X3.719 Y10.507
X3.94 Y10.312
X4.199 Y10.174
X4.51 Y10.054
G3 X4.914 Y10.249 Z-1.8 I0.105 J0.3
G1 X4.925 Y10.285
X4.931 Y10.322
X4.948 Y10.494
X5.155 Y12.587
X5.178 Y12.814
X5.179 Y12.834
G3 X4.873 Y13.163 Z-2 I-0.317 J0.011
G1 X4.511
X4.361 Y13.155
X4.215 Y13.121
X4.076 Y13.064
X3.946 Y12.99
X3.824 Y12.902
X3.711 Y12.804
X3.606 Y12.696
X3.511 Y12.581
X3.424 Y12.459
X3.346 Y12.33
X3.278 Y12.197
X3.219 Y12.059
X3.169 Y11.917
X3.132 Y11.772
X3.107 Y11.624
X3.094 Y11.475
Y11.452
X3.132 Y11.156
X3.239 Y10.877
X3.408 Y10.631
X3.631 Y10.433
X3.894 Y10.293
X4.199 Y10.174
G3 X4.604 Y10.369 Z-1.8 I0.104 J0.3
G1 X4.614 Y10.408
X4.62 Y10.448
X4.634 Y10.615
X4.797 Y12.587
X4.816 Y12.819
X4.817 Y12.834
G3 X4.511 Y13.163 Z-2 I-0.317 J0.011
G1 X4.119
X3.969 Y13.155
X3.824 Y13.117
X3.687 Y13.055
X3.559 Y12.977
X3.44 Y12.886
X3.33 Y12.784
X3.229 Y12.673
X3.138 Y12.554
X3.056 Y12.428
X2.985 Y12.296
X2.923 Y12.159
X2.872 Y12.018
X2.835 Y11.873
X2.808 Y11.725
X2.794 Y11.576
X2.795 Y11.564
X2.834 Y11.264
X2.944 Y10.983
X3.118 Y10.736
X3.346 Y10.538
X3.615 Y10.401
X3.894 Y10.293
G3 X4.299 Y10.488 Z-1.8 I0.104 J0.3
G1 X4.311 Y10.532
X4.316 Y10.577
X4.324 Y10.734
X4.413 Y12.586
X4.425 Y12.83
Y12.834
G3 X4.119 Y13.163 Z-2 I-0.317 J0.011
G1 X3.725
X3.575 Y13.155
X3.432 Y13.109
X3.298 Y13.042
X3.173 Y12.959
X3.058 Y12.862
X2.953 Y12.756
X2.858 Y12.64
X2.773 Y12.516
X2.698 Y12.386
X2.634 Y12.251
X2.581 Y12.11
X2.542 Y11.965
X2.515 Y11.818
X2.502 Y11.667
X2.542 Y11.365
X2.655 Y11.082
X2.833 Y10.834
X3.065 Y10.636
X3.338 Y10.501
X3.458 Y10.458
X3.615 Y10.401
G3 X4.016 Y10.604 Z-1.8 I0.099 J0.302
G1 X4.028 Y10.652
X4.032 Y10.703
X4.031 Y10.85
Y12.586
Y12.834
Y12.845 Z-1.804
G3 X3.725 Y13.163 Z-2 I-0.317 J0
G1 X3.377
X3.228 Y13.155
X3.085 Y13.11
X2.951 Y13.042
X2.827 Y12.957
X2.714 Y12.858
X2.611 Y12.749
X2.519 Y12.631
X2.438 Y12.504
X2.368 Y12.372
X2.31 Y12.234
X2.265 Y12.09
X2.235 Y11.944
X2.217 Y11.792
X2.243 Y11.527
X2.324 Y11.273
X2.457 Y11.043
X2.636 Y10.845
X2.853 Y10.69
X3.097 Y10.584
X3.144 Y10.569
X3.338 Y10.501
G3 X3.736 Y10.708 Z-1.8 I0.095 J0.303
G1 X3.748 Y10.76
X3.751 Y10.814
X3.746 Y10.955
X3.693 Y12.586
X3.684 Y12.834
Y12.856 Z-1.809
G3 X3.377 Y13.163 Z-2 I-0.317 J-0.01
G1 X3.057
X2.907 Y13.155
X2.763 Y13.113
X2.629 Y13.047
X2.505 Y12.963
X2.392 Y12.864
X2.29 Y12.753
X2.2 Y12.633
X2.122 Y12.505
X2.056 Y12.371
X2.004 Y12.23
X1.967 Y12.085
X1.943 Y11.937
X1.942 Y11.925
X1.96 Y11.639
X2.043 Y11.364
X2.185 Y11.115
X2.381 Y10.905
X2.619 Y10.746
X2.887 Y10.644
X2.987 Y10.618
X3.097 Y10.584
G3 X3.487 Y10.806 Z-1.8 I0.084 J0.306
G1 X3.497 Y10.858
X3.498 Y10.912
X3.488 Y11.053
X3.382 Y12.587
X3.365 Y12.834
X3.363 Y12.867 Z-1.813
G3 X3.057 Y13.163 Z-2 I-0.317 J-0.022
G1 X2.704
X2.554 Y13.155
X2.412 Y13.107
X2.28 Y13.035
X2.16 Y12.946
X2.051 Y12.842
X1.955 Y12.727
X1.871 Y12.603
X1.8 Y12.471
X1.744 Y12.332
X1.702 Y12.188
X1.674 Y12.04
X1.673 Y12.021
X1.685 Y11.73
X1.764 Y11.45
X1.906 Y11.195
X2.103 Y10.98
X2.343 Y10.816
X2.616 Y10.712
X2.887 Y10.644
G3 X3.264 Y10.887 Z-1.8 I0.067 J0.31
G1 X3.271 Y10.942
X3.268 Y10.997
X3.25 Y11.133
X3.049 Y12.589
X3.015 Y12.835
X3.007 Y12.889 Z-1.822
G3 X2.704 Y13.163 Z-2 I-0.315 J-0.043
G1 X2.39
X2.24 Y13.155
X2.098 Y13.107
X1.967 Y13.034
X1.847 Y12.943
X1.741 Y12.837
X1.648 Y12.72
X1.568 Y12.593
X1.503 Y12.458
X1.454 Y12.316
X1.418 Y12.17
X1.415 Y12.147
Y11.846
X1.486 Y11.553
X1.625 Y11.286
X1.824 Y11.06
X2.071 Y10.888
X2.352 Y10.779
X2.616 Y10.712
G3 X2.993 Y10.955 Z-1.8 I0.067 J0.31
G1 X3 Y11.015
X2.996 Y11.075
X2.975 Y11.201
X2.743 Y12.59
X2.702 Y12.835
X2.692 Y12.897 Z-1.825
G3 X2.39 Y13.163 Z-2 I-0.313 J-0.052
G1 X2.075
X1.925 Y13.155
X1.784 Y13.105
X1.655 Y13.029
X1.538 Y12.934
X1.436 Y12.825
X1.347 Y12.704
X1.273 Y12.574
X1.216 Y12.435
X1.172 Y12.291
X1.169 Y12.271
X1.152 Y12.005
X1.192 Y11.741
X1.287 Y11.492
X1.432 Y11.268
X1.622 Y11.08
X1.847 Y10.937
X2.097 Y10.844
X2.352 Y10.779
G3 X2.729 Y11.022 Z-1.8 I0.067 J0.31
G1 X2.737 Y11.087
X2.73 Y11.153
X2.707 Y11.267
X2.439 Y12.592
X2.39 Y12.835
X2.375 Y12.908 Z-1.83
G3 X2.075 Y13.163 Z-2 I-0.311 J-0.063
G1 X1.761
X1.611 Y13.155
X1.472 Y13.099
X1.346 Y13.018
X1.233 Y12.919
X1.135 Y12.805
X1.052 Y12.68
X0.987 Y12.545
X0.937 Y12.404
X0.935 Y12.394
X0.904 Y12.114
X0.936 Y11.834
X1.03 Y11.569
X1.18 Y11.331
X1.381 Y11.133
X1.62 Y10.984
X1.886 Y10.893
X2.043 Y10.857
X2.097 Y10.844
G3 X2.474 Y11.087 Z-1.8 I0.067 J0.31
G1 X2.481 Y11.134
X2.48 Y11.182
X2.473 Y11.23
X2.448 Y11.331
X2.138 Y12.595
X2.079 Y12.836
X2.058 Y12.921 Z-1.835
G3 X1.761 Y13.163 Z-2 I-0.308 J-0.076
G1 X1.491
X1.341 Y13.155
X1.2 Y13.104
X1.073 Y13.024
X0.962 Y12.924
X0.865 Y12.809
X0.787 Y12.681
X0.725 Y12.544
X0.722 Y12.536
X0.67 Y12.246
X0.687 Y11.952
X0.772 Y11.669
X0.92 Y11.415
X1.124 Y11.202
X1.372 Y11.042
X1.651 Y10.945
X1.886 Y10.893
G3 X2.256 Y11.147 Z-1.8 I0.058 J0.312
G1 X2.261 Y11.195
X2.259 Y11.244
X2.249 Y11.292
X2.222 Y11.39
X1.88 Y12.598
X1.812 Y12.837
X1.786 Y12.932 Z-1.839
G3 X1.491 Y13.163 Z-2 I-0.306 J-0.086
G1 X1.21
X1.06 Y13.155
X0.92 Y13.101
X0.795 Y13.018
X0.686 Y12.915
X0.598 Y12.794
X0.524 Y12.663
X0.471 Y12.523
X0.432 Y12.378
X0.426 Y12.102
X0.481 Y11.831
X0.595 Y11.579
X0.76 Y11.357
X0.97 Y11.178
X1.215 Y11.049
X1.482 Y10.977
G3 X1.835 Y11.254 Z-1.8 I0.038 J0.315
G1 X1.837 Y11.305
X1.83 Y11.356
X1.801 Y11.499
X1.575 Y12.592
X1.525 Y12.835
X1.51 Y12.909 Z-1.83
G3 X1.21 Y13.163 Z-2 I-0.311 J-0.064
G1 X0.943
X0.793 Y13.155
X0.654 Y13.098
X0.531 Y13.013
X0.425 Y12.906
X0.336 Y12.786
X0.268 Y12.652
X0.216 Y12.512
X0.187 Y12.216
X0.229 Y11.922
X0.338 Y11.646
X0.51 Y11.404
X0.734 Y11.209
X0.998 Y11.073
X1.286 Y11.003
X1.415 Y10.987
X1.482 Y10.977
G3 X1.835 Y11.254 Z-1.8 I0.038 J0.315
G1 X1.837 Y11.305
X1.83 Y11.355
X1.816 Y11.404
X1.783 Y11.493
X1.361 Y12.608
X1.273 Y12.84
X1.229 Y12.957 Z-1.85
G3 X0.943 Y13.163 Z-2 I-0.297 J-0.112
G1 X0.661
X0.511 Y13.155
X0.375 Y13.091
X0.256 Y12.999
X0.155 Y12.889
X0.075 Y12.762
X0.011 Y12.626
X-0.04 Y12.321
X-0.014 Y12.012
X0.087 Y11.72
X0.256 Y11.461
X0.484 Y11.252
X0.757 Y11.105
X1.057 Y11.03
X1.286 Y11.003
G3 X1.629 Y11.292 Z-1.8 I0.027 J0.316
G1 X1.63 Y11.344
X1.621 Y11.396
X1.604 Y11.445
X1.568 Y11.529
X1.096 Y12.615
X0.997 Y12.842
X0.941 Y12.972 Z-1.857
G3 X0.661 Y13.163 Z-2 I-0.291 J-0.127
G1 X0.424
X0.274 Y13.155
X0.137 Y13.094
X0.017 Y13.004
X-0.081 Y12.89
X-0.161 Y12.763
X-0.22 Y12.626
X-0.263 Y12.482
X-0.276 Y12.199
X-0.224 Y11.921
X-0.11 Y11.661
X0.06 Y11.435
X0.278 Y11.254
X0.531 Y11.127
X0.806 Y11.061
X1.057 Y11.03
G3 X1.4 Y11.319 Z-1.8 I0.027 J0.316
G1 X1.401 Y11.373
X1.392 Y11.426
X1.374 Y11.476
X1.338 Y11.556
X0.863 Y12.616
X0.762 Y12.843
X0.703 Y12.975 Z-1.858
G3 X0.424 Y13.163 Z-2 I-0.29 J-0.13
G1 X0.189
X0.039 Y13.155
X-0.098 Y13.094
X-0.217 Y13.003
X-0.318 Y12.892
X-0.397 Y12.765
X-0.458 Y12.628
X-0.503 Y12.331
X-0.474 Y12.033
X-0.373 Y11.751
X-0.206 Y11.502
X0.016 Y11.301
X0.281 Y11.16
X0.572 Y11.089
X0.806 Y11.061
G3 X1.149 Y11.35 Z-1.8 I0.027 J0.316
G1 Y11.403
X1.14 Y11.456
X1.123 Y11.506
X1.087 Y11.586
X0.628 Y12.616
X0.527 Y12.843
X0.468 Y12.975 Z-1.858
G3 X0.189 Y13.163 Z-2 I-0.29 J-0.129
G1 X-0.048
X-0.197 Y13.155
X-0.335 Y13.095
X-0.454 Y13.004
X-0.552 Y12.89
X-0.631 Y12.763
X-0.688 Y12.624
X-0.728 Y12.479
X-0.734 Y12.202
X-0.677 Y11.931
X-0.559 Y11.68
X-0.387 Y11.462
X-0.17 Y11.289
X0.08 Y11.171
X0.351 Y11.112
X0.472 Y11.101
X0.572 Y11.089
G3 X0.915 Y11.379 Z-1.8 I0.026 J0.316
G1 Y11.433
X0.905 Y11.486
X0.887 Y11.537
X0.852 Y11.615
X0.394 Y12.618
X0.291 Y12.843
X0.23 Y12.977 Z-1.859
G3 X-0.048 Y13.163 Z-2 I-0.289 J-0.132
G1 X-0.283
X-0.432 Y13.155
X-0.569 Y13.094
X-0.688 Y13.002
X-0.787 Y12.89
X-0.865 Y12.761
X-0.924 Y12.623
X-0.962 Y12.332
X-0.928 Y12.04
X-0.823 Y11.765
X-0.655 Y11.524
X-0.433 Y11.332
X-0.17 Y11.199
X0.117 Y11.135
X0.351 Y11.112
G3 X0.688 Y11.409 Z-1.8 I0.02 J0.317
G1 X0.687 Y11.462
X0.677 Y11.514
X0.658 Y11.564
X0.621 Y11.645
X0.163 Y12.619
X0.058 Y12.844
X-0.006 Y12.98 Z-1.86
G3 X-0.283 Y13.163 Z-2 I-0.287 J-0.135
G1 X-0.519
X-0.669 Y13.155
X-0.806 Y13.093
X-0.924 Y13.001
X-1.02 Y12.886
X-1.097 Y12.757
X-1.151 Y12.617
X-1.188 Y12.472
X-1.187 Y12.186
X-1.117 Y11.909
X-0.982 Y11.656
X-0.792 Y11.443
X-0.556 Y11.281
X-0.288 Y11.18
X-0.004 Y11.146
G3 X0.302 Y11.475 Z-1.8 I-0.012 J0.317
G1 X0.296 Y11.526
X0.282 Y11.575
X0.231 Y11.712
X-0.103 Y12.607
X-0.189 Y12.84
X-0.233 Y12.956 Z-1.85
G3 X-0.519 Y13.163 Z-2 I-0.298 J-0.111
G1 X-0.754
X-0.904 Y13.155
X-1.04 Y13.092
X-1.157 Y12.998
X-1.254 Y12.884
X-1.33 Y12.754
X-1.386 Y12.615
X-1.418 Y12.347
X-1.39 Y12.078
X-1.301 Y11.823
X-1.157 Y11.594
X-0.966 Y11.403
X-0.736 Y11.26
X-0.481 Y11.173
X-0.212 Y11.146
X-0.004
G3 X0.302 Y11.475 Z-1.8 I-0.012 J0.317
G1 X0.296 Y11.524
X0.283 Y11.571
X0.264 Y11.615
X0.215 Y11.705
X-0.287 Y12.63
X-0.406 Y12.848
X-0.486 Y12.997 Z-1.868
G3 X-0.754 Y13.163 Z-2 I-0.279 J-0.151
G1 X-0.991
X-1.14 Y13.155
X-1.276 Y13.09
X-1.392 Y12.996
X-1.487 Y12.879
X-1.561 Y12.749
X-1.613 Y12.608
X-1.648 Y12.462
X-1.641 Y12.174
X-1.565 Y11.896
X-1.426 Y11.644
X-1.231 Y11.432
X-0.991 Y11.272
X-0.72 Y11.174
X-0.433 Y11.143
X-0.212 Y11.146
G3 X0.091 Y11.477 Z-1.8 I-0.015 J0.317
G1 X0.085 Y11.526
X0.071 Y11.573
X0.051 Y11.618
X0.001 Y11.706
X-0.519 Y12.633
X-0.64 Y12.85
X-0.725 Y13 Z-1.869
G3 X-0.991 Y13.163 Z-2 I-0.277 J-0.155
G1 X-1.226
X-1.375 Y13.155
X-1.51 Y13.088
X-1.625 Y12.992
X-1.72 Y12.876
X-1.794 Y12.745
X-1.848 Y12.605
X-1.876 Y12.336
X-1.844 Y12.068
X-1.753 Y11.813
X-1.607 Y11.585
X-1.413 Y11.395
X-1.183 Y11.254
X-0.926 Y11.167
X-0.657 Y11.14
X-0.433 Y11.143
G3 X-0.131 Y11.475 Z-1.8 I-0.015 J0.317
G1 X-0.137 Y11.524
X-0.151 Y11.572
X-0.172 Y11.617
X-0.221 Y11.703
X-0.751 Y12.634
X-0.874 Y12.85
X-0.961 Y13.002 Z-1.87
G3 X-1.226 Y13.163 Z-2 I-0.276 J-0.157
G1 X-1.462
X-1.612 Y13.155
X-1.746 Y13.087
X-1.86 Y12.99
X-1.952 Y12.872
X-2.025 Y12.74
X-2.075 Y12.599
X-2.108 Y12.453
X-2.098 Y12.164
X-2.02 Y11.886
X-1.878 Y11.635
X-1.681 Y11.424
X-1.44 Y11.265
X-1.169 Y11.168
X-0.882 Y11.137
X-0.657 Y11.14
G3 X-0.355 Y11.472 Z-1.8 I-0.015 J0.317
G1 X-0.361 Y11.522
X-0.375 Y11.571
X-0.397 Y11.616
X-0.446 Y11.7
X-0.986 Y12.636
X-1.11 Y12.851
X-1.198 Y13.004 Z-1.871
G3 X-1.462 Y13.163 Z-2 I-0.275 J-0.159
G1 X-1.697
X-1.847 Y13.155
X-1.98 Y13.085
X-2.093 Y12.986
X-2.186 Y12.869
X-2.258 Y12.737
X-2.31 Y12.597
X-2.341 Y12.45
X-2.355 Y12.3
X-2.316 Y12.034
X-2.219 Y11.782
X-2.068 Y11.558
X-1.871 Y11.374
X-1.639 Y11.237
X-1.382 Y11.156
X-1.113 Y11.133
X-0.882 Y11.137
G3 X-0.58 Y11.469 Z-1.8 I-0.015 J0.317
G1 X-0.586 Y11.52
X-0.601 Y11.569
X-0.623 Y11.614
X-0.671 Y11.697
X-1.219 Y12.637
X-1.344 Y12.851
X-1.434 Y13.005 Z-1.872
G3 X-1.697 Y13.163 Z-2 I-0.274 J-0.16
G1 X-1.934
X-2.084 Y13.155
X-2.215 Y13.083
X-2.328 Y12.984
X-2.421 Y12.867
X-2.496 Y12.737
X-2.549 Y12.596
X-2.583 Y12.45
X-2.575 Y12.158
X-2.497 Y11.876
X-2.354 Y11.622
X-2.154 Y11.408
X-1.908 Y11.249
X-1.632 Y11.153
X-1.341 Y11.127
X-1.113 Y11.133
G3 X-0.816 Y11.47 Z-1.8 I-0.02 J0.317
G1 X-0.823 Y11.519
X-0.837 Y11.566
X-0.859 Y11.61
X-0.909 Y11.697
X-1.456 Y12.636
X-1.581 Y12.851
X-1.67 Y13.005 Z-1.871
G3 X-1.934 Y13.163 Z-2 I-0.274 J-0.16
G1 X-2.169
X-2.319 Y13.155
X-2.451 Y13.084
X-2.564 Y12.985
X-2.659 Y12.869
X-2.731 Y12.738
X-2.784 Y12.597
X-2.817 Y12.451
X-2.81 Y12.153
X-2.73 Y11.867
X-2.584 Y11.608
X-2.379 Y11.392
X-2.127 Y11.233
X-1.845 Y11.139
X-1.548 Y11.118
X-1.415 Y11.124
X-1.341 Y11.127
G3 X-1.044 Y11.463 Z-1.8 I-0.02 J0.317
G1 X-1.051 Y11.512
X-1.066 Y11.559
X-1.087 Y11.604
X-1.138 Y11.69
X-1.69 Y12.637
X-1.816 Y12.851
X-1.906 Y13.005 Z-1.872
G3 X-2.169 Y13.163 Z-2 I-0.274 J-0.16
G1 X-2.405
X-2.555 Y13.155
X-2.687 Y13.084
X-2.8 Y12.985
X-2.894 Y12.868
X-2.966 Y12.737
X-3.019 Y12.596
X-3.052 Y12.45
X-3.067 Y12.301
X-3.026 Y12.006
X-2.915 Y11.729
X-2.741 Y11.487
X-2.514 Y11.294
X-2.247 Y11.162
X-1.956 Y11.097
X-1.658 Y11.104
G3 X-1.403 Y11.473 Z-1.8 I-0.057 J0.312
G1 X-1.413 Y11.516
X-1.43 Y11.556
X-1.501 Y11.7
X-1.953 Y12.622
X-2.063 Y12.845
X-2.131 Y12.985 Z-1.862
G3 X-2.405 Y13.163 Z-2 I-0.285 J-0.14
G1 X-2.64
X-2.79 Y13.155
X-2.922 Y13.084
X-3.035 Y12.985
X-3.129 Y12.868
X-3.205 Y12.739
X-3.259 Y12.599
X-3.294 Y12.453
X-3.311 Y12.304
Y12.291
X-3.271 Y11.991
X-3.161 Y11.709
X-2.985 Y11.462
X-2.755 Y11.265
X-2.484 Y11.13
X-2.189 Y11.064
X-1.886 Y11.071
X-1.658 Y11.104
G3 X-1.403 Y11.473 Z-1.8 I-0.057 J0.312
G1 X-1.42 Y11.534
X-1.449 Y11.59
X-1.516 Y11.692
X-2.143 Y12.648
X-2.279 Y12.856
X-2.386 Y13.019 Z-1.878
G3 X-2.64 Y13.163 Z-2 I-0.266 J-0.174
G1 X-2.877
X-3.027 Y13.155
X-3.159 Y13.084
X-3.273 Y12.986
X-3.368 Y12.87
X-3.445 Y12.741
X-3.5 Y12.602
X-3.537 Y12.457
X-3.556 Y12.308
X-3.557 Y12.158
X-3.543 Y12.009
X-3.54 Y11.999
X-3.454 Y11.745
X-3.315 Y11.516
X-3.131 Y11.321
X-2.91 Y11.17
X-2.661 Y11.069
X-2.397 Y11.023
X-2.129 Y11.035
X-1.886 Y11.071
G3 X-1.631 Y11.44 Z-1.8 I-0.057 J0.312
G1 X-1.648 Y11.5
X-1.676 Y11.555
X-1.743 Y11.659
X-2.382 Y12.647
X-2.517 Y12.855
X-2.621 Y13.018 Z-1.877
G3 X-2.877 Y13.163 Z-2 I-0.267 J-0.172
G1 X-3.112
X-3.262 Y13.155
X-3.395 Y13.086
X-3.51 Y12.989
X-3.606 Y12.875
X-3.684 Y12.747
X-3.745 Y12.609
X-3.788 Y12.465
X-3.812 Y12.317
X-3.818 Y12.168
X-3.807 Y12.018
X-3.806 Y12.009
X-3.726 Y11.745
X-3.592 Y11.505
X-3.408 Y11.301
X-3.184 Y11.141
X-2.93 Y11.034
X-2.659 Y10.985
X-2.384 Y10.996
X-2.129 Y11.035
G3 X-1.876 Y11.405 Z-1.8 I-0.058 J0.312
G1 X-1.892 Y11.462
X-1.918 Y11.515
X-1.987 Y11.625
X-2.623 Y12.643
X-2.754 Y12.854
X-2.854 Y13.013 Z-1.875
G3 X-3.112 Y13.163 Z-2 I-0.269 J-0.168
G1 X-3.348
X-3.498 Y13.155
X-3.632 Y13.087
X-3.749 Y12.993
X-3.848 Y12.881
X-3.929 Y12.755
X-3.993 Y12.619
X-4.04 Y12.476
X-4.068 Y12.329
X-4.079 Y12.179
X-4.072 Y12.029
X-4.049 Y11.879
X-3.935 Y11.593
X-3.756 Y11.343
X-3.521 Y11.145
X-3.245 Y11.01
X-2.944 Y10.946
X-2.637 Y10.957
X-2.411 Y10.992
X-2.384 Y10.996
G3 X-2.131 Y11.366 Z-1.8 I-0.058 J0.312
G1 X-2.146 Y11.42
X-2.17 Y11.471
X-2.24 Y11.588
X-2.867 Y12.639
X-2.994 Y12.852
X-3.087 Y13.008 Z-1.873
G3 X-3.348 Y13.163 Z-2 I-0.273 J-0.163
G1 X-3.583
X-3.733 Y13.155
X-3.869 Y13.091
X-3.988 Y13
X-4.09 Y12.89
X-4.175 Y12.766
X-4.242 Y12.632
X-4.292 Y12.491
X-4.326 Y12.345
X-4.343 Y12.196
X-4.341 Y12.046
X-4.325 Y11.897
X-4.318 Y11.867
X-4.229 Y11.613
X-4.088 Y11.384
X-3.902 Y11.19
X-3.678 Y11.041
X-3.427 Y10.942
X-3.162 Y10.9
X-2.893 Y10.915
X-2.637 Y10.957
G3 X-2.38 Y11.267 Z-1.825 I-0.061 J0.312
G1 Y11.268
X-2.386 Y11.329 Z-1.8
X-2.4 Y11.379
X-2.422 Y11.425
X-2.494 Y11.552
X-3.109 Y12.634
X-3.232 Y12.85
X-3.319 Y13.002 Z-1.87
G3 X-3.583 Y13.163 Z-2 I-0.276 J-0.157
G1 X-3.82
X-3.97 Y13.155
X-4.108 Y13.096
X-4.229 Y13.008
X-4.334 Y12.9
X-4.422 Y12.779
X-4.493 Y12.647
X-4.548 Y12.507
X-4.586 Y12.362
X-4.607 Y12.214
X-4.612 Y12.064
X-4.601 Y11.914
X-4.573 Y11.767
X-4.531 Y11.623
X-4.529 Y11.618
X-4.387 Y11.363
X-4.19 Y11.149
X-3.949 Y10.986
X-3.677 Y10.882
X-3.388 Y10.844
X-3.098 Y10.874
X-2.987 Y10.899
X-2.893 Y10.915
G3 X-2.644 Y11.288 Z-1.8 I-0.063 J0.311
G1 X-2.657 Y11.334
X-2.676 Y11.377
X-2.749 Y11.512
X-3.354 Y12.63
X-3.472 Y12.848
X-3.552 Y12.996 Z-1.867
G3 X-3.82 Y13.163 Z-2 I-0.279 J-0.151
G1 X-4.087
X-4.237 Y13.155
X-4.373 Y13.093
X-4.494 Y13.003
X-4.598 Y12.895
X-4.686 Y12.774
X-4.757 Y12.642
X-4.813 Y12.503
X-4.853 Y12.358
X-4.878 Y12.21
X-4.888 Y12.061
X-4.881 Y11.911
X-4.858 Y11.762
X-4.822 Y11.617
X-4.808 Y11.582
X-4.663 Y11.307
X-4.454 Y11.077
X-4.195 Y10.905
X-3.902 Y10.802
X-3.592 Y10.774
X-3.285 Y10.823
X-3.144 Y10.864
X-3.098 Y10.874
G3 X-2.871 Y11.261 Z-1.8 I-0.08 J0.307
G1 X-2.883 Y11.299
X-2.9 Y11.335
X-2.982 Y11.483
X-3.617 Y12.632
X-3.737 Y12.849
X-3.82 Y12.999 Z-1.869
G3 X-4.087 Y13.163 Z-2 I-0.278 J-0.154
G1 X-4.331
X-4.48 Y13.155
X-4.619 Y13.097
X-4.742 Y13.011
X-4.849 Y12.906
X-4.939 Y12.787
X-5.015 Y12.657
X-5.075 Y12.519
X-5.12 Y12.376
X-5.15 Y12.229
X-5.166 Y12.08
X-5.165 Y11.93
X-5.149 Y11.781
X-5.119 Y11.634
X-5.073 Y11.491
X-5.014 Y11.351
X-4.852 Y11.118
X-4.641 Y10.928
X-4.393 Y10.79
X-4.12 Y10.711
X-3.837 Y10.695
X-3.557 Y10.744
X-3.285 Y10.823
G3 X-3.083 Y11.224 Z-1.8 I-0.099 J0.302
G1 X-3.107 Y11.279
X-3.198 Y11.443
X-3.86 Y12.632
X-3.981 Y12.849
X-4.064 Y13 Z-1.869
G3 X-4.331 Y13.163 Z-2 I-0.277 J-0.154
G1 X-4.606
X-4.756 Y13.155
X-4.893 Y13.094
X-5.014 Y13.006
X-5.12 Y12.9
X-5.211 Y12.781
X-5.287 Y12.651
X-5.349 Y12.514
X-5.396 Y12.372
X-5.428 Y12.225
X-5.446 Y12.077
X-5.451 Y11.927
X-5.441 Y11.777
X-5.417 Y11.629
X-5.378 Y11.484
X-5.327 Y11.343
X-5.309 Y11.308
X-5.15 Y11.063
X-4.938 Y10.862
X-4.685 Y10.715
X-4.406 Y10.63
X-4.114 Y10.613
X-3.826 Y10.663
X-3.557 Y10.744
G3 X-3.356 Y11.145 Z-1.8 I-0.1 J0.301
G1 X-3.377 Y11.194
X-3.468 Y11.366
X-4.142 Y12.629
X-4.259 Y12.848
X-4.337 Y12.995 Z-1.867
G3 X-4.606 Y13.163 Z-2 I-0.28 J-0.149
G1 X-4.873
X-5.023 Y13.155
X-5.16 Y13.094
X-5.282 Y13.007
X-5.389 Y12.902
X-5.481 Y12.784
X-5.559 Y12.655
X-5.623 Y12.52
X-5.673 Y12.378
X-5.709 Y12.233
X-5.732 Y12.084
X-5.741 Y11.935
X-5.737 Y11.785
X-5.72 Y11.636
X-5.687 Y11.489
X-5.642 Y11.346
X-5.583 Y11.208
X-5.57 Y11.185
X-5.405 Y10.948
X-5.19 Y10.756
X-4.937 Y10.618
X-4.658 Y10.541
X-4.37 Y10.53
X-4.087 Y10.585
X-3.826 Y10.663
G3 X-3.627 Y11.066 Z-1.8 I-0.102 J0.301
G1 X-3.645 Y11.108
X-3.736 Y11.288
X-4.416 Y12.625
X-4.528 Y12.846
X-4.601 Y12.989 Z-1.864
G3 X-4.873 Y13.163 Z-2 I-0.283 J-0.144
G1 X-5.116
X-5.266 Y13.155
X-5.406 Y13.101
X-5.532 Y13.02
X-5.643 Y12.919
X-5.74 Y12.804
X-5.822 Y12.679
X-5.891 Y12.546
X-5.946 Y12.406
X-5.988 Y12.262
X-6.017 Y12.115
X-6.033 Y11.966
X-6.036 Y11.816
X-6.026 Y11.666
X-6.003 Y11.518
X-5.966 Y11.373
X-5.917 Y11.231
X-5.854 Y11.095
X-5.838 Y11.067
X-5.67 Y10.839
X-5.455 Y10.653
X-5.204 Y10.521
X-4.93 Y10.449
X-4.646 Y10.44
X-4.368 Y10.496
X-4.087 Y10.585
G3 X-3.895 Y10.991 Z-1.8 I-0.107 J0.299
G1 X-3.907 Y11.021
X-4 Y11.216
X-4.669 Y12.62
X-4.776 Y12.845
X-4.841 Y12.982 Z-1.861
G3 X-5.116 Y13.163 Z-2 I-0.287 J-0.137
G1 X-5.392
X-5.542 Y13.155
X-5.682 Y13.101
X-5.808 Y13.02
X-5.92 Y12.92
X-6.018 Y12.806
X-6.102 Y12.682
X-6.173 Y12.55
X-6.231 Y12.412
X-6.276 Y12.268
X-6.308 Y12.122
X-6.328 Y11.973
X-6.336 Y11.824
X-6.331 Y11.674
X-6.315 Y11.525
X-6.285 Y11.378
X-6.242 Y11.234
X-6.187 Y11.094
X-6.119 Y10.96
X-6.039 Y10.831
X-5.85 Y10.633
X-5.622 Y10.48
X-5.366 Y10.38
X-5.095 Y10.339
X-4.822 Y10.357
X-4.558 Y10.435
X-4.368 Y10.496
G3 X-4.176 Y10.902 Z-1.8 I-0.107 J0.299
G1 X-4.186 Y10.926
X-4.277 Y11.128
X-4.951 Y12.617
X-5.054 Y12.843
X-5.114 Y12.976 Z-1.858
G3 X-5.392 Y13.163 Z-2 I-0.289 J-0.131
G1 X-5.659
X-5.809 Y13.155
X-5.95 Y13.104
X-6.078 Y13.026
X-6.192 Y12.928
X-6.292 Y12.817
X-6.379 Y12.695
X-6.453 Y12.564
X-6.514 Y12.428
X-6.563 Y12.286
X-6.6 Y12.14
X-6.625 Y11.992
X-6.638 Y11.843
X-6.639 Y11.693
X-6.629 Y11.543
X-6.607 Y11.395
X-6.573 Y11.249
X-6.528 Y11.106
X-6.469 Y10.968
X-6.399 Y10.835
X-6.317 Y10.71
X-6.305 Y10.695
X-6.11 Y10.497
X-5.876 Y10.347
X-5.615 Y10.252
X-5.339 Y10.217
X-5.062 Y10.244
X-4.798 Y10.331
X-4.703 Y10.374
X-4.558 Y10.435
G3 X-4.403 Y10.856 Z-1.8 I-0.133 J0.288
G1 X-4.507 Y11.081
X-5.216 Y12.618
X-5.32 Y12.844
X-5.382 Y12.978 Z-1.859
G3 X-5.659 Y13.163 Z-2 I-0.288 J-0.133
G1 X-5.941
X-6.091 Y13.155
X-6.232 Y13.105
X-6.361 Y13.027
X-6.475 Y12.93
X-6.577 Y12.82
X-6.666 Y12.699
X-6.742 Y12.57
X-6.806 Y12.434
X-6.858 Y12.294
X-6.898 Y12.149
X-6.927 Y12.002
X-6.944 Y11.853
X-6.95 Y11.703
X-6.945 Y11.553
X-6.929 Y11.404
X-6.902 Y11.256
X-6.864 Y11.111
X-6.814 Y10.97
X-6.752 Y10.833
X-6.68 Y10.702
X-6.595 Y10.578
X-6.572 Y10.55
X-6.376 Y10.358
X-6.143 Y10.212
X-5.884 Y10.121
X-5.611 Y10.089
X-5.337 Y10.117
X-5.077 Y10.203
X-4.798 Y10.331
G3 X-4.651 Y10.746 Z-1.805 I-0.142 J0.284
G1 X-4.656 Y10.756 Z-1.8
X-4.759 Y10.983
X-5.5 Y12.617
X-5.603 Y12.843
X-5.663 Y12.976 Z-1.859
G3 X-5.941 Y13.163 Z-2 I-0.289 J-0.131
G1 X-6.217
X-6.367 Y13.155
X-6.509 Y13.108
X-6.639 Y13.033
X-6.756 Y12.939
X-6.86 Y12.831
X-6.951 Y12.712
X-7.03 Y12.585
X-7.098 Y12.45
X-7.153 Y12.311
X-7.197 Y12.168
X-7.23 Y12.021
X-7.252 Y11.873
X-7.264 Y11.723
Y11.573
X-7.255 Y11.424
X-7.235 Y11.275
X-7.204 Y11.128
X-7.162 Y10.984
X-7.11 Y10.843
X-7.046 Y10.708
X-6.973 Y10.577
X-6.887 Y10.454
X-6.788 Y10.334
X-6.548 Y10.141
X-6.268 Y10.013
X-5.965 Y9.958
X-5.658 Y9.977
X-5.365 Y10.071
X-5.077 Y10.203
G3 X-4.927 Y10.612 Z-1.808 I-0.143 J0.284
G1 X-4.935 Y10.63 Z-1.8
X-5.032 Y10.858
X-5.784 Y12.614
X-5.881 Y12.842
X-5.936 Y12.97 Z-1.856
G3 X-6.217 Y13.163 Z-2 I-0.292 J-0.125
G1 X-6.525
X-6.675 Y13.155
X-6.816 Y13.103
X-6.945 Y13.026
X-7.061 Y12.931
X-7.165 Y12.823
X-7.256 Y12.704
X-7.336 Y12.577
X-7.404 Y12.444
X-7.461 Y12.305
X-7.508 Y12.162
X-7.543 Y12.016
X-7.568 Y11.868
X-7.582 Y11.719
X-7.586 Y11.569
X-7.581 Y11.419
X-7.565 Y11.27
X-7.539 Y11.122
X-7.504 Y10.977
X-7.458 Y10.834
X-7.403 Y10.694
X-7.337 Y10.559
X-7.26 Y10.431
X-7.173 Y10.308
X-7.077 Y10.193
X-7.059 Y10.176
X-6.816 Y9.991
X-6.537 Y9.87
X-6.236 Y9.82
X-5.932 Y9.844
X-5.643 Y9.94
X-5.502 Y10.007
X-5.365 Y10.071
G3 X-5.214 Y10.475 Z-1.81 I-0.143 J0.283
G1 X-5.223 Y10.497 Z-1.8
X-5.318 Y10.727
X-6.097 Y12.612
X-6.191 Y12.841
X-6.243 Y12.966 Z-1.854
G3 X-6.525 Y13.163 Z-2 I-0.293 J-0.121
G1 X-6.807
X-6.956 Y13.155
X-7.099 Y13.108
X-7.229 Y13.034
X-7.348 Y12.942
X-7.454 Y12.836
X-7.548 Y12.72
X-7.631 Y12.595
X-7.703 Y12.463
X-7.763 Y12.325
X-7.813 Y12.184
X-7.853 Y12.039
X-7.882 Y11.892
X-7.901 Y11.743
X-7.911 Y11.594
Y11.444
X-7.901 Y11.294
X-7.882 Y11.145
X-7.854 Y10.998
X-7.817 Y10.853
X-7.769 Y10.71
X-7.713 Y10.571
X-7.647 Y10.437
X-7.57 Y10.308
X-7.483 Y10.186
X-7.388 Y10.07
X-7.351 Y10.033
X-7.145 Y9.869
X-6.91 Y9.751
X-6.655 Y9.685
X-6.392 Y9.673
X-6.133 Y9.716
X-5.888 Y9.813
X-5.659 Y9.933
X-5.643 Y9.94
G3 X-5.494 Y10.338 Z-1.813 I-0.146 J0.282
G1 X-5.506 Y10.369 Z-1.8
X-5.597 Y10.6
X-6.384 Y12.609
X-6.475 Y12.841
X-6.522 Y12.961 Z-1.852
G3 X-6.807 Y13.163 Z-2 I-0.296 J-0.116
G1 X-7.121
X-7.271 Y13.155
X-7.412 Y13.104
X-7.542 Y13.029
X-7.66 Y12.937
X-7.766 Y12.831
X-7.861 Y12.714
X-7.944 Y12.59
X-8.017 Y12.459
X-8.079 Y12.322
X-8.13 Y12.181
X-8.172 Y12.037
X-8.204 Y11.89
X-8.227 Y11.742
X-8.24 Y11.593
X-8.243 Y11.443
X-8.238 Y11.293
X-8.224 Y11.144
X-8.2 Y10.995
X-8.168 Y10.849
X-8.127 Y10.705
X-8.077 Y10.563
X-8.018 Y10.425
X-7.95 Y10.291
X-7.872 Y10.164
X-7.816 Y10.086
X-7.605 Y9.853
X-7.344 Y9.678
X-7.049 Y9.569
X-6.736 Y9.533
X-6.424 Y9.573
X-6.13 Y9.686
X-5.888 Y9.813
G3 X-5.749 Y10.206 Z-1.818 I-0.157 J0.276
G1 X-5.765 Y10.247 Z-1.8
X-5.856 Y10.478
X-6.698 Y12.61
X-6.789 Y12.841
X-6.837 Y12.962 Z-1.852
G3 X-7.121 Y13.163 Z-2 I-0.295 J-0.117
G1 X-7.435
X-7.585 Y13.155
X-7.726 Y13.103
X-7.855 Y13.027
X-7.973 Y12.934
X-8.08 Y12.829
X-8.175 Y12.713
X-8.259 Y12.589
X-8.333 Y12.458
X-8.397 Y12.323
X-8.451 Y12.182
X-8.495 Y12.039
X-8.53 Y11.893
X-8.555 Y11.745
X-8.571 Y11.596
X-8.579 Y11.446
X-8.578 Y11.296
X-8.568 Y11.147
X-8.55 Y10.998
X-8.523 Y10.85
X-8.488 Y10.705
X-8.444 Y10.561
X-8.392 Y10.42
X-8.329 Y10.284
X-8.259 Y10.152
X-8.18 Y10.024
X-8.09 Y9.904
X-7.992 Y9.79
X-7.886 Y9.685
X-7.77 Y9.59
X-7.75 Y9.576
X-7.489 Y9.434
X-7.201 Y9.358
X-6.903 Y9.352
X-6.612 Y9.416
X-6.345 Y9.547
X-6.13 Y9.686
G3 X-6.016 Y10.062 Z-1.83 I-0.182 J0.26
G1 X-6.044 Y10.131 Z-1.8
X-6.134 Y10.363
X-7.013 Y12.609
X-7.104 Y12.841
X-7.151 Y12.961 Z-1.852
G3 X-7.435 Y13.163 Z-2 I-0.296 J-0.116
G1 X-7.75
X-7.9 Y13.155
X-8.04 Y13.102
X-8.17 Y13.027
X-8.288 Y12.935
X-8.395 Y12.83
X-8.491 Y12.714
X-8.577 Y12.591
X-8.652 Y12.462
X-8.718 Y12.327
X-8.774 Y12.187
X-8.82 Y12.045
X-8.858 Y11.9
X-8.886 Y11.752
X-8.906 Y11.604
X-8.918 Y11.454
X-8.921 Y11.304
X-8.915 Y11.154
X-8.902 Y11.005
X-8.88 Y10.856
X-8.85 Y10.71
X-8.812 Y10.564
X-8.766 Y10.422
X-8.711 Y10.282
X-8.648 Y10.146
X-8.577 Y10.014
X-8.498 Y9.886
X-8.411 Y9.764
X-8.315 Y9.649
X-8.211 Y9.541
X-8.099 Y9.441
X-8.056 Y9.409
X-7.792 Y9.259
X-7.5 Y9.177
X-7.197 Y9.168
X-6.901 Y9.231
X-6.628 Y9.364
X-6.345 Y9.547
G3 X-6.232 Y9.927 Z-1.828 I-0.182 J0.26
G1 X-6.259 Y9.992 Z-1.8
X-6.353 Y10.222
X-7.323 Y12.611
X-7.416 Y12.841
X-7.467 Y12.965 Z-1.854
G3 X-7.75 Y13.163 Z-2 I-0.294 J-0.119
G1 X-8.064
X-8.214 Y13.155
X-8.355 Y13.103
X-8.485 Y13.028
X-8.604 Y12.937
X-8.712 Y12.833
X-8.809 Y12.719
X-8.896 Y12.596
X-8.973 Y12.468
X-9.041 Y12.334
X-9.099 Y12.196
X-9.148 Y12.054
X-9.188 Y11.909
X-9.22 Y11.763
X-9.244 Y11.615
X-9.259 Y11.465
X-9.266 Y11.316
X-9.264 Y11.166
X-9.255 Y11.016
X-9.238 Y10.867
X-9.214 Y10.719
X-9.181 Y10.572
X-9.141 Y10.428
X-9.094 Y10.286
X-9.039 Y10.146
X-8.976 Y10.01
X-8.905 Y9.878
X-8.827 Y9.749
X-8.742 Y9.626
X-8.648 Y9.509
X-8.545 Y9.4
X-8.436 Y9.297
X-8.319 Y9.204
X-8.293 Y9.187
X-8.034 Y9.054
X-7.751 Y8.986
X-7.461 Y8.984
X-7.177 Y9.049
X-6.916 Y9.177
X-6.628 Y9.364
G3 X-6.514 Y9.74 Z-1.83 I-0.182 J0.26
G1 X-6.541 Y9.809 Z-1.8
X-6.632 Y10.04
X-7.641 Y12.609
X-7.732 Y12.841
X-7.78 Y12.961 Z-1.852
G3 X-8.064 Y13.163 Z-2 I-0.296 J-0.116
G1 X-8.378
X-8.528 Y13.155
X-8.669 Y13.104
X-8.8 Y13.031
X-8.92 Y12.941
X-9.03 Y12.838
X-9.128 Y12.725
X-9.217 Y12.604
X-9.296 Y12.477
X-9.366 Y12.344
X-9.427 Y12.207
X-9.478 Y12.066
X-9.522 Y11.922
X-9.556 Y11.777
X-9.583 Y11.629
X-9.602 Y11.48
X-9.613 Y11.33
X-9.616 Y11.181
X-9.611 Y11.031
X-9.599 Y10.881
X-9.579 Y10.732
X-9.553 Y10.585
X-9.519 Y10.439
X-9.477 Y10.294
X-9.429 Y10.152
X-9.374 Y10.013
X-9.311 Y9.877
X-9.241 Y9.744
X-9.164 Y9.615
X-9.08 Y9.491
X-8.989 Y9.372
X-8.89 Y9.259
X-8.782 Y9.155
X-8.668 Y9.057
X-8.546 Y8.97
X-8.533 Y8.962
X-8.265 Y8.84
X-7.976 Y8.785
X-7.681 Y8.798
X-7.398 Y8.88
X-7.142 Y9.025
X-7.073 Y9.075
X-6.916 Y9.177
G3 X-6.801 Y9.55 Z-1.831 I-0.182 J0.26
G1 X-6.829 Y9.623 Z-1.8
X-6.917 Y9.855
X-7.96 Y12.608
X-8.048 Y12.84
X-8.093 Y12.958 Z-1.851
G3 X-8.378 Y13.163 Z-2 I-0.297 J-0.113
G1 X-8.693
X-8.843 Y13.155
X-8.985 Y13.106
X-9.117 Y13.035
X-9.238 Y12.947
X-9.349 Y12.846
X-9.449 Y12.734
X-9.54 Y12.615
X-9.621 Y12.489
X-9.693 Y12.357
X-9.756 Y12.221
X-9.81 Y12.081
X-9.857 Y11.938
X-9.894 Y11.793
X-9.924 Y11.646
X-9.947 Y11.498
X-9.961 Y11.349
X-9.969 Y11.199
Y11.049
X-9.961 Y10.899
X-9.947 Y10.75
X-9.926 Y10.601
X-9.897 Y10.454
X-9.862 Y10.308
X-9.82 Y10.164
X-9.771 Y10.022
X-9.716 Y9.883
X-9.654 Y9.746
X-9.585 Y9.613
X-9.509 Y9.484
X-9.427 Y9.358
X-9.338 Y9.238
X-9.242 Y9.123
X-9.138 Y9.014
X-9.026 Y8.914
X-8.909 Y8.821
X-8.783 Y8.738
X-8.758 Y8.725
X-8.484 Y8.614
X-8.191 Y8.571
X-7.897 Y8.597
X-7.616 Y8.692
X-7.366 Y8.85
X-7.231 Y8.96
X-7.142 Y9.025
G3 X-7.042 Y9.388 Z-1.839 I-0.197 J0.249
G1 X-7.077 Y9.477 Z-1.8
X-7.165 Y9.709
X-8.273 Y12.608
X-8.362 Y12.84
X-8.407 Y12.959 Z-1.851
G3 X-8.693 Y13.163 Z-2 I-0.297 J-0.113
G1 X-9.007
X-9.157 Y13.155
X-9.3 Y13.11
X-9.433 Y13.041
X-9.556 Y12.954
X-9.668 Y12.855
X-9.771 Y12.746
X-9.864 Y12.628
X-9.947 Y12.503
X-10.021 Y12.373
X-10.087 Y12.238
X-10.144 Y12.099
X-10.193 Y11.957
X-10.234 Y11.813
X-10.268 Y11.667
X-10.294 Y11.519
X-10.312 Y11.37
X-10.324 Y11.221
X-10.328 Y11.071
X-10.325 Y10.921
X-10.316 Y10.771
X-10.3 Y10.622
X-10.277 Y10.474
X-10.247 Y10.327
X-10.211 Y10.181
X-10.169 Y10.037
X-10.12 Y9.895
X-10.065 Y9.756
X-10.004 Y9.619
X-9.936 Y9.485
X-9.862 Y9.355
X-9.781 Y9.228
X-9.694 Y9.106
X-9.601 Y8.989
X-9.501 Y8.877
X-9.394 Y8.772
X-9.279 Y8.675
X-9.159 Y8.586
X-9.1 Y8.549
X-8.863 Y8.433
X-8.607 Y8.368
X-8.343 Y8.358
X-8.083 Y8.402
X-7.838 Y8.499
X-7.618 Y8.645
X-7.425 Y8.803
X-7.366 Y8.85
G3 X-7.278 Y9.204 Z-1.844 I-0.208 J0.24
G1 X-7.318 Y9.307 Z-1.8
X-7.407 Y9.539
X-8.587 Y12.608
X-8.676 Y12.84
X-8.722 Y12.959 Z-1.851
G3 X-9.007 Y13.163 Z-2 I-0.296 J-0.114
G1 X-9.322 Y13.162
X-9.471 Y13.155
X-9.616 Y13.113
X-9.75 Y13.047
X-9.875 Y12.964
X-9.989 Y12.867
X-10.094 Y12.759
X-10.188 Y12.643
X-10.274 Y12.52
X-10.351 Y12.391
X-10.419 Y12.258
X-10.48 Y12.12
X-10.532 Y11.979
X-10.576 Y11.836
X-10.613 Y11.691
X-10.642 Y11.544
X-10.665 Y11.395
X-10.68 Y11.246
X-10.689 Y11.096
X-10.69 Y10.946
X-10.686 Y10.796
X-10.674 Y10.647
X-10.657 Y10.498
X-10.633 Y10.35
X-10.603 Y10.203
X-10.566 Y10.057
X-10.524 Y9.913
X-10.475 Y9.772
X-10.421 Y9.632
X-10.36 Y9.495
X-10.294 Y9.36
X-10.221 Y9.229
X-10.143 Y9.101
X-10.058 Y8.977
X-9.967 Y8.858
X-9.87 Y8.743
X-9.767 Y8.635
X-9.656 Y8.533
X-9.541 Y8.438
X-9.418 Y8.352
X-9.289 Y8.275
X-9.154 Y8.208
X-9.148 Y8.206
X-8.885 Y8.135
X-8.613 Y8.122
X-8.345 Y8.169
X-8.093 Y8.272
X-7.869 Y8.427
X-7.618 Y8.645
G3 X-7.537 Y8.99 Z-1.849 I-0.216 J0.232
G1 X-7.58 Y9.105 Z-1.8
X-7.668 Y9.337
X-8.904 Y12.608
X-8.991 Y12.84
X-9.036 Y12.957 Z-1.85
G3 X-9.322 Y13.162 Z-2 I-0.297 J-0.112
G1 X-9.431
X-9.675 Y13.157
X-9.824 Y13.146
X-9.968 Y13.102
X-10.102 Y13.034
X-10.226 Y12.95
X-10.339 Y12.852
X-10.444 Y12.744
X-10.539 Y12.628
X-10.625 Y12.505
X-10.702 Y12.377
X-10.771 Y12.244
X-10.832 Y12.106
X-10.885 Y11.966
X-10.931 Y11.823
X-10.969 Y11.678
X-11 Y11.532
X-11.025 Y11.384
X-11.042 Y11.235
X-11.053 Y11.085
X-11.057 Y10.935
X-11.055 Y10.783
X-11.047 Y10.63
X-11.032 Y10.475
X-11.01 Y10.319
X-10.981 Y10.164
X-10.946 Y10.01
X-10.905 Y9.859
X-10.858 Y9.711
X-10.806 Y9.568
X-10.749 Y9.428
X-10.686 Y9.292
X-10.617 Y9.159
X-10.543 Y9.029
X-10.463 Y8.902
X-10.377 Y8.779
X-10.285 Y8.66
X-10.188 Y8.546
X-10.084 Y8.437
X-9.976 Y8.334
X-9.861 Y8.237
X-9.74 Y8.148
X-9.613 Y8.069
X-9.481 Y7.998
X-9.453 Y7.986
X-9.185 Y7.905
X-8.906 Y7.886
X-8.629 Y7.93
X-8.369 Y8.034
X-8.139 Y8.193
X-7.869 Y8.427
G3 X-7.789 Y8.772 Z-1.849 I-0.216 J0.232
G1 X-7.832 Y8.887 Z-1.8
X-7.921 Y9.119
X-9.251 Y12.609
X-9.34 Y12.841
X-9.382 Y12.952 Z-1.848
G3 X-9.675 Y13.157 Z-2 I-0.297 J-0.113
G1 X-9.903 Y13.152
X-10.06 Y13.139
X-10.208 Y13.112
X-10.35 Y13.064
X-10.482 Y12.993
X-10.604 Y12.906
X-10.716 Y12.807
X-10.819 Y12.698
X-10.913 Y12.58
X-10.997 Y12.456
X-11.073 Y12.327
X-11.141 Y12.193
X-11.201 Y12.056
X-11.254 Y11.915
X-11.299 Y11.772
X-11.337 Y11.627
X-11.368 Y11.481
X-11.393 Y11.333
X-11.411 Y11.184
X-11.423 Y11.033
X-11.428 Y10.879
X-11.427 Y10.721
X-11.419 Y10.561
X-11.404 Y10.399
X-11.382 Y10.238
X-11.354 Y10.076
X-11.319 Y9.916
X-11.276 Y9.757
X-11.228 Y9.601
X-11.173 Y9.447
X-11.112 Y9.298
X-11.046 Y9.153
X-10.976 Y9.014
X-10.902 Y8.882
X-10.823 Y8.755
X-10.739 Y8.631
X-10.649 Y8.51
X-10.554 Y8.394
X-10.454 Y8.283
X-10.348 Y8.176
X-10.237 Y8.076
X-10.121 Y7.981
X-9.997 Y7.896
X-9.869 Y7.818
X-9.735 Y7.75
X-9.702 Y7.736
X-9.425 Y7.659
X-9.139 Y7.647
X-8.856 Y7.7
X-8.594 Y7.816
X-8.365 Y7.989
X-8.331 Y8.021
X-8.16 Y8.174
X-8.139 Y8.193
G3 X-8.059 Y8.539 Z-1.849 I-0.216 J0.232
G1 X-8.103 Y8.652 Z-1.8
X-8.192 Y8.884
X-9.623 Y12.609
X-9.713 Y12.841
X-9.749 Y12.935 Z-1.841
G3 X-10.06 Y13.139 Z-2 I-0.296 J-0.114
G1 X-10.461 Y13.086
X-10.608 Y13.059
X-10.749 Y13.006
X-10.879 Y12.932
X-10.999 Y12.841
X-11.109 Y12.739
X-11.209 Y12.628
X-11.3 Y12.509
X-11.382 Y12.383
X-11.457 Y12.253
X-11.523 Y12.118
X-11.581 Y11.98
X-11.632 Y11.839
X-11.676 Y11.696
X-11.713 Y11.55
X-11.743 Y11.403
X-11.767 Y11.255
X-11.785 Y11.105
X-11.797 Y10.95
X-11.802 Y10.79
X-11.801 Y10.627
X-11.792 Y10.461
X-11.777 Y10.294
X-11.754 Y10.125
X-11.724 Y9.956
X-11.687 Y9.788
X-11.642 Y9.622
X-11.591 Y9.458
X-11.534 Y9.298
X-11.47 Y9.141
X-11.401 Y8.989
X-11.326 Y8.842
X-11.246 Y8.701
X-11.163 Y8.566
X-11.075 Y8.437
X-10.986 Y8.317
X-10.891 Y8.2
X-10.792 Y8.088
X-10.687 Y7.981
X-10.577 Y7.879
X-10.462 Y7.783
X-10.341 Y7.694
X-10.214 Y7.614
X-10.083 Y7.541
X-9.946 Y7.479
X-9.908 Y7.465
X-9.617 Y7.397
X-9.319 Y7.4
X-9.029 Y7.473
X-8.766 Y7.613
X-8.542 Y7.811
G3 X-8.487 Y8.117 Z-1.87 I-0.245 J0.203
G1 X-8.543 Y8.281 Z-1.8
X-8.624 Y8.515
X-10.025 Y12.568
X-10.106 Y12.803
X-10.13 Y12.874 Z-1.83
G3 X-10.461 Y13.086 Z-2 I-0.3 J-0.104
G1 X-10.76 Y13.047
X-10.803 Y13.038
X-10.846 Y13.026
X-11.09 Y12.925
X-11.225 Y12.861
X-11.349 Y12.777
X-11.463 Y12.679
X-11.566 Y12.57
X-11.66 Y12.453
X-11.744 Y12.329
X-11.819 Y12.199
X-11.887 Y12.065
X-11.947 Y11.928
X-11.999 Y11.787
X-12.044 Y11.644
X-12.082 Y11.499
X-12.113 Y11.352
X-12.138 Y11.204
X-12.158 Y11.051
X-12.171 Y10.891
X-12.178 Y10.727
Y10.559
X-12.17 Y10.387
X-12.156 Y10.214
X-12.133 Y10.039
X-12.103 Y9.864
X-12.066 Y9.689
X-12.021 Y9.516
X-11.969 Y9.344
X-11.91 Y9.175
X-11.844 Y9.01
X-11.772 Y8.849
X-11.694 Y8.694
X-11.612 Y8.545
X-11.526 Y8.403
X-11.435 Y8.268
X-11.342 Y8.14
X-11.248 Y8.023
X-11.15 Y7.91
X-11.047 Y7.801
X-10.938 Y7.697
X-10.826 Y7.598
X-10.708 Y7.505
X-10.585 Y7.419
X-10.456 Y7.342
X-10.323 Y7.272
X-10.186 Y7.212
X-10.038 Y7.162
X-9.763 Y7.121
X-9.485 Y7.142
X-9.219 Y7.224
X-8.978 Y7.362
X-8.772 Y7.549
X-8.639 Y7.702
X-8.542 Y7.811
G3 X-8.5 Y8.149 Z-1.855 I-0.245 J0.203
G1 X-8.559 Y8.274 Z-1.8
X-8.666 Y8.498
X-10.574 Y12.516
X-10.68 Y12.74
X-10.692 Y12.764 Z-1.811
G3 X-11.09 Y12.925 Z-2 I-0.287 J-0.136
G1 X-11.475 Y12.766
X-11.518 Y12.747
X-11.553 Y12.732
X-11.593 Y12.709
X-11.632 Y12.68
X-11.769 Y12.575
X-11.883 Y12.478
X-11.987 Y12.369
X-12.079 Y12.251
X-12.161 Y12.126
X-12.234 Y11.995
X-12.298 Y11.859
X-12.354 Y11.72
X-12.403 Y11.578
X-12.444 Y11.434
X-12.478 Y11.287
X-12.505 Y11.14
X-12.526 Y10.989
X-12.542 Y10.83
X-12.551 Y10.666
X-12.553 Y10.497
X-12.548 Y10.326
X-12.536 Y10.151
X-12.516 Y9.974
X-12.488 Y9.795
X-12.453 Y9.615
X-12.409 Y9.435
X-12.357 Y9.256
X-12.298 Y9.079
X-12.232 Y8.905
X-12.159 Y8.736
X-12.079 Y8.571
X-11.995 Y8.413
X-11.906 Y8.262
X-11.813 Y8.118
X-11.716 Y7.981
X-11.617 Y7.853
X-11.516 Y7.734
X-11.415 Y7.624
X-11.309 Y7.517
X-11.198 Y7.416
X-11.083 Y7.32
X-10.964 Y7.23
X-10.839 Y7.146
X-10.711 Y7.068
X-10.577 Y7.001
X-10.439 Y6.942
X-10.297 Y6.892
X-10.266 Y6.884
X-9.992 Y6.846
X-9.717 Y6.869
X-9.453 Y6.951
X-9.214 Y7.089
X-9.011 Y7.276
X-8.772 Y7.549
G3 X-8.742 Y7.905 Z-1.848 I-0.246 J0.2
G1 X-8.8 Y8.009 Z-1.8
X-8.922 Y8.226
X-11.203 Y12.286
X-11.308 Y12.472
X-11.326 Y12.501
G3 X-11.769 Y12.575 Z-2 I-0.258 J-0.185
G1 X-12.179 Y12.261
X-12.225 Y12.22
X-12.261 Y12.179
X-12.475 Y11.899
X-12.561 Y11.775
X-12.636 Y11.646
X-12.7 Y11.51
X-12.754 Y11.37
X-12.8 Y11.227
X-12.836 Y11.082
X-12.866 Y10.935
X-12.888 Y10.786
X-12.903 Y10.637
X-12.912 Y10.487
X-12.914 Y10.329
X-12.91 Y10.163
X-12.898 Y9.992
X-12.879 Y9.816
X-12.852 Y9.637
X-12.817 Y9.457
X-12.773 Y9.276
X-12.722 Y9.096
X-12.662 Y8.916
X-12.595 Y8.738
X-12.521 Y8.564
X-12.439 Y8.395
X-12.353 Y8.231
X-12.26 Y8.074
X-12.164 Y7.923
X-12.063 Y7.78
X-11.958 Y7.644
X-11.851 Y7.517
X-11.743 Y7.398
X-11.635 Y7.289
X-11.525 Y7.187
X-11.41 Y7.091
X-11.291 Y6.999
X-11.169 Y6.913
X-11.042 Y6.833
X-10.91 Y6.761
X-10.774 Y6.698
X-10.634 Y6.643
X-10.491 Y6.599
X-10.471 Y6.595
X-10.194 Y6.564
X-9.918 Y6.596
X-9.655 Y6.688
X-9.419 Y6.835
X-9.222 Y7.03
X-9.187 Y7.073
X-9.011 Y7.276
G3 X-8.998 Y7.659 Z-1.835 I-0.246 J0.2
G1 X-9.048 Y7.73 Z-1.8
X-9.191 Y7.933
X-11.877 Y11.746
X-11.971 Y11.88
X-11.998 Y11.913
X-12.029 Y11.942
G3 X-12.475 Y11.899 Z-2 I-0.202 J-0.245
G1 X-12.68 Y11.632
X-12.709 Y11.593
X-12.732 Y11.553
X-12.766 Y11.475
X-13.026 Y10.846
X-13.038 Y10.803
X-13.047 Y10.76
X-13.139 Y10.06
X-13.148 Y9.749
X-13.147 Y9.599
X-13.137 Y9.449
X-13.119 Y9.3
X-13.093 Y9.153
X-13.061 Y9.005
X-13.021 Y8.852
X-12.973 Y8.695
X-12.918 Y8.538
X-12.854 Y8.38
X-12.783 Y8.222
X-12.703 Y8.064
X-12.617 Y7.909
X-12.524 Y7.757
X-12.426 Y7.611
X-12.323 Y7.471
X-12.217 Y7.339
X-12.107 Y7.214
X-11.995 Y7.096
X-11.883 Y6.987
X-11.77 Y6.887
X-11.654 Y6.792
X-11.534 Y6.702
X-11.409 Y6.618
X-11.281 Y6.541
X-11.149 Y6.47
X-11.012 Y6.409
X-10.872 Y6.356
X-10.728 Y6.312
X-10.689 Y6.304
X-10.412 Y6.277
X-10.136 Y6.312
X-9.874 Y6.406
X-9.64 Y6.556
X-9.445 Y6.754
X-9.222 Y7.03
G3 X-9.272 Y7.465 Z-1.806 I-0.254 J0.191
G1 X-9.284 Y7.475 Z-1.8
X-9.475 Y7.634
X-12.561 Y10.2
X-12.623 Y10.252
X-12.669 Y10.284
X-12.719 Y10.307
X-12.773 Y10.321
G3 X-13.139 Y10.06 Z-2 I-0.052 J-0.313
G1 X-13.152 Y9.903
X-13.162 Y9.431
X-13.163 Y8.716
X-13.155 Y8.566
X-13.135 Y8.418
X-13.104 Y8.271
X-13.063 Y8.127
X-13.014 Y7.985
X-12.957 Y7.846
X-12.893 Y7.71
X-12.823 Y7.578
X-12.746 Y7.449
X-12.665 Y7.323
X-12.576 Y7.198
X-12.481 Y7.076
X-12.381 Y6.958
X-12.276 Y6.844
X-12.168 Y6.736
X-12.058 Y6.635
X-11.943 Y6.538
X-11.824 Y6.447
X-11.701 Y6.361
X-11.574 Y6.282
X-11.443 Y6.208
X-11.307 Y6.143
X-11.168 Y6.088
X-11.026 Y6.04
X-10.88 Y6.004
X-10.858 Y6.001
X-10.569 Y5.985
X-10.283 Y6.037
X-10.018 Y6.153
X-9.786 Y6.327
X-9.6 Y6.549
G3 X-9.694 Y6.978 Z-1.805 I-0.271 J0.165
G1 X-9.706 Y6.985 Z-1.8
X-9.912 Y7.123
X-12.609 Y8.929
X-12.669 Y8.969
X-12.72 Y8.997
X-12.776 Y9.015
X-12.834 Y9.022
X-12.845 Z-1.804
G3 X-13.163 Y8.716 Z-2 I0 J-0.318
G1 Y8.017
X-13.155 Y7.867
X-13.134 Y7.718
X-13.097 Y7.573
X-13.049 Y7.431
X-12.991 Y7.293
X-12.924 Y7.158
X-12.849 Y7.028
X-12.767 Y6.902
X-12.68 Y6.781
X-12.586 Y6.664
X-12.486 Y6.551
X-12.382 Y6.444
X-12.273 Y6.341
X-12.158 Y6.244
X-12.04 Y6.152
X-11.917 Y6.066
X-11.79 Y5.986
X-11.659 Y5.913
X-11.524 Y5.848
X-11.384 Y5.793
X-11.242 Y5.746
X-11.096 Y5.709
X-11.043 Y5.701
X-10.755 Y5.688
X-10.473 Y5.741
X-10.21 Y5.857
X-9.98 Y6.03
X-9.796 Y6.251
X-9.6 Y6.549
G3 X-9.706 Y6.985 Z-1.8 I-0.271 J0.165
G1 X-9.745 Y7.005
X-9.932 Y7.086
X-12.6 Y8.245
X-12.719 Y8.297
X-12.775 Y8.315
X-12.834 Y8.323
G3 X-13.163 Y8.017 Z-2 I-0.011 J-0.317
G1 Y7.42
X-13.155 Y7.27
X-13.13 Y7.122
X-13.089 Y6.978
X-13.034 Y6.838
X-12.968 Y6.703
X-12.893 Y6.573
X-12.81 Y6.449
X-12.719 Y6.329
X-12.622 Y6.215
X-12.518 Y6.107
X-12.409 Y6.004
X-12.295 Y5.907
X-12.175 Y5.816
X-12.051 Y5.732
X-11.923 Y5.655
X-11.79 Y5.584
X-11.653 Y5.523
X-11.512 Y5.472
X-11.368 Y5.429
X-11.221 Y5.399
X-11.197 Y5.396
X-10.918 Y5.392
X-10.645 Y5.45
X-10.391 Y5.567
X-10.17 Y5.737
X-9.992 Y5.952
X-9.796 Y6.251
G3 X-9.902 Y6.687 Z-1.8 I-0.271 J0.165
G1 X-9.96 Y6.714
X-10.133 Y6.776
X-12.597 Y7.657
X-12.738 Y7.708
X-12.786 Y7.72
X-12.834 Y7.726
G3 X-13.163 Y7.42 Z-2 I-0.011 J-0.317
G1 Y6.869
X-13.155 Y6.719
X-13.124 Y6.572
X-13.075 Y6.43
X-13.012 Y6.294
X-12.938 Y6.164
X-12.854 Y6.039
X-12.762 Y5.921
X-12.663 Y5.809
X-12.556 Y5.703
X-12.444 Y5.604
X-12.326 Y5.511
X-12.202 Y5.426
X-12.074 Y5.348
X-11.941 Y5.278
X-11.804 Y5.217
X-11.663 Y5.167
X-11.519 Y5.126
X-11.37 Y5.097
X-11.095 Y5.098
X-10.827 Y5.158
X-10.578 Y5.276
X-10.361 Y5.444
X-10.186 Y5.656
X-9.992 Y5.952
G3 X-10.098 Y6.388 Z-1.8 I-0.271 J0.165
G1 X-10.136 Y6.407
X-10.176 Y6.422
X-10.333 Y6.467
X-12.594 Y7.116
X-12.758 Y7.163
X-12.796 Y7.171
X-12.834 Y7.175
G3 X-13.163 Y6.869 Z-2 I-0.011 J-0.317
G1 Y6.397
X-13.155 Y6.247
X-13.122 Y6.101
X-13.069 Y5.961
X-13.002 Y5.826
X-12.923 Y5.699
X-12.834 Y5.578
X-12.736 Y5.465
X-12.63 Y5.359
X-12.517 Y5.26
X-12.398 Y5.169
X-12.273 Y5.086
X-12.143 Y5.011
X-12.008 Y4.945
X-11.869 Y4.89
X-11.725 Y4.846
X-11.579 Y4.813
X-11.559 Y4.81
X-11.257 Y4.809
X-10.963 Y4.88
X-10.695 Y5.018
X-10.468 Y5.217
X-10.295 Y5.464
X-10.217 Y5.608
X-10.186 Y5.656
G3 X-10.292 Y6.092 Z-1.8 I-0.271 J0.165
G1 X-10.337 Y6.115
X-10.384 Y6.13
X-10.529 Y6.164
X-12.592 Y6.652
X-12.772 Y6.695
X-12.834 Y6.703
G3 X-13.163 Y6.397 Z-2 I-0.011 J-0.317
G1 Y5.973
X-13.155 Y5.823
X-13.122 Y5.677
X-13.068 Y5.537
X-12.999 Y5.404
X-12.916 Y5.279
X-12.822 Y5.162
X-12.719 Y5.053
X-12.608 Y4.952
X-12.49 Y4.859
X-12.365 Y4.776
X-12.235 Y4.702
X-12.099 Y4.638
X-11.958 Y4.587
X-11.895 Y4.569
X-11.615 Y4.523
X-11.332 Y4.541
X-11.06 Y4.622
X-10.813 Y4.762
X-10.604 Y4.954
X-10.443 Y5.187
X-10.295 Y5.464
G3 X-10.44 Y5.889 Z-1.8 I-0.285 J0.14
G1 X-10.485 Y5.907
X-10.531 Y5.918
X-10.682 Y5.941
X-12.589 Y6.243
X-12.796 Y6.276
X-12.834 Y6.279
G3 X-13.163 Y5.973 Z-2 I-0.011 J-0.317
G1 Y5.572
X-13.155 Y5.422
X-13.122 Y5.276
X-13.066 Y5.137
X-12.993 Y5.006
X-12.906 Y4.884
X-12.808 Y4.77
X-12.701 Y4.665
X-12.584 Y4.571
X-12.461 Y4.486
X-12.329 Y4.413
X-12.193 Y4.35
X-12.052 Y4.301
X-11.906 Y4.263
X-11.894 Y4.261
X-11.626 Y4.246
X-11.361 Y4.288
X-11.112 Y4.386
X-10.888 Y4.534
X-10.702 Y4.727
X-10.56 Y4.954
X-10.524 Y5.03
X-10.443 Y5.187
G3 X-10.595 Y5.609 Z-1.8 I-0.287 J0.135
G1 X-10.644 Y5.628
X-10.695 Y5.638
X-10.838 Y5.654
X-12.588 Y5.852
X-12.81 Y5.877
X-12.834 Y5.879
G3 X-13.163 Y5.572 Z-2 I-0.011 J-0.317
G1 Y5.187
X-13.155 Y5.037
X-13.12 Y4.892
X-13.06 Y4.754
X-12.983 Y4.625
X-12.891 Y4.507
X-12.788 Y4.398
X-12.674 Y4.3
X-12.552 Y4.213
X-12.423 Y4.136
X-12.287 Y4.074
X-12.146 Y4.023
X-12.113 Y4.016
X-11.831 Y3.98
X-11.549 Y4.009
X-11.281 Y4.101
X-11.04 Y4.25
X-10.838 Y4.45
X-10.687 Y4.69
X-10.56 Y4.954
G3 X-10.723 Y5.373 Z-1.8 I-0.291 J0.128
G1 X-10.778 Y5.391
X-10.836 Y5.399
X-10.967 Y5.405
X-12.586 Y5.482
X-12.83 Y5.493
X-12.834
G3 X-13.163 Y5.187 Z-2 I-0.011 J-0.317
G1 Y4.825
X-13.155 Y4.675
X-13.117 Y4.53
X-13.054 Y4.394
X-12.973 Y4.268
X-12.876 Y4.153
X-12.768 Y4.05
X-12.649 Y3.958
X-12.521 Y3.88
X-12.386 Y3.815
X-12.241 Y3.764
X-11.958 Y3.727
X-11.674 Y3.755
X-11.403 Y3.847
X-11.161 Y3.997
X-10.958 Y4.199
X-10.807 Y4.441
X-10.687 Y4.69
G3 X-10.85 Y5.108 Z-1.8 I-0.291 J0.128
G1 X-10.913 Y5.129
X-10.979 Y5.135
X-11.095
X-12.586 Y5.132
X-12.834
X-12.846 Z-1.805
G3 X-13.163 Y4.825 Z-2 I0.001 J-0.317
G1 Y4.472
X-13.155 Y4.322
X-13.112 Y4.178
X-13.044 Y4.045
X-12.956 Y3.923
X-12.854 Y3.813
X-12.739 Y3.716
X-12.613 Y3.636
X-12.479 Y3.568
X-12.179 Y3.499
X-11.872 Y3.505
X-11.575 Y3.586
X-11.307 Y3.736
X-11.084 Y3.947
X-10.918 Y4.207
X-10.807 Y4.441
G3 X-10.971 Y4.858 Z-1.8 I-0.291 J0.127
G1 X-11.018 Y4.875
X-11.067 Y4.883
X-11.117 Y4.884
X-11.216 Y4.878
X-12.587 Y4.795
X-12.834 Y4.78
X-12.865 Y4.778 Z-1.812
G3 X-13.163 Y4.472 Z-2 I0.019 J-0.317
G1 Y4.158
X-13.155 Y4.008
X-13.112 Y3.864
X-13.04 Y3.732
X-12.949 Y3.613
X-12.84 Y3.51
X-12.719 Y3.422
X-12.587 Y3.35
X-12.318 Y3.279
X-12.041 Y3.27
X-11.768 Y3.323
X-11.514 Y3.436
X-11.291 Y3.603
X-11.112 Y3.815
X-10.985 Y4.062
G3 X-11.183 Y4.465 Z-1.8 I-0.301 J0.102
G1 X-11.235 Y4.478
X-11.289 Y4.482
X-11.43 Y4.48
X-12.586 Y4.467
X-12.834 Y4.464
X-12.849 Z-1.806
G3 X-13.163 Y4.158 Z-2 I0.004 J-0.317
G1 Y3.843
X-13.155 Y3.693
X-13.105 Y3.552
X-13.026 Y3.425
X-12.926 Y3.312
X-12.809 Y3.218
X-12.68 Y3.142
X-12.41 Y3.06
X-12.127 Y3.043
X-11.848 Y3.093
X-11.589 Y3.206
X-11.363 Y3.377
X-11.184 Y3.596
X-11.06 Y3.85
X-11.003 Y4.014
X-10.985 Y4.062
G3 X-11.183 Y4.465 Z-1.8 I-0.301 J0.102
G1 X-11.238 Y4.478
X-11.295 Y4.482
X-11.352 Y4.475
X-11.427 Y4.459
X-12.593 Y4.211
X-12.836 Y4.159
X-12.911 Y4.143 Z-1.831
G3 X-13.163 Y3.843 Z-2 I0.066 J-0.311
G1 Y3.568
X-13.155 Y3.418
X-13.103 Y3.277
X-13.02 Y3.152
X-12.913 Y3.047
X-12.792 Y2.959
X-12.523 Y2.859
X-12.237 Y2.827
X-11.953 Y2.865
X-11.686 Y2.972
X-11.453 Y3.139
X-11.268 Y3.358
X-11.141 Y3.616
X-11.06 Y3.85
G3 X-11.269 Y4.247 Z-1.8 I-0.303 J0.094
G1 X-11.327 Y4.259
X-11.386 Y4.261
X-11.444 Y4.251
X-11.513 Y4.233
X-12.596 Y3.95
X-12.836 Y3.887
X-12.926 Y3.864 Z-1.837
G3 X-13.163 Y3.568 Z-2 I0.08 J-0.307
G1 Y3.301
X-13.155 Y3.151
X-13.097 Y3.013
X-13.005 Y2.895
X-12.894 Y2.794
X-12.767 Y2.714
X-12.63 Y2.651
X-12.341 Y2.604
X-12.05 Y2.633
X-11.775 Y2.734
X-11.535 Y2.901
X-11.345 Y3.124
X-11.218 Y3.388
X-11.15 Y3.591
X-11.141 Y3.616
G3 X-11.351 Y4.013 Z-1.8 I-0.303 J0.094
G1 X-11.412 Y4.026
X-11.475
X-11.536 Y4.014
X-11.594 Y3.997
X-12.6 Y3.695
X-12.837 Y3.624
X-12.936 Y3.594 Z-1.841
G3 X-13.163 Y3.301 Z-2 I0.091 J-0.304
G1 Y3.057
X-13.155 Y2.907
X-13.093 Y2.771
X-13.002 Y2.652
X-12.888 Y2.555
X-12.76 Y2.476
X-12.512 Y2.408
X-12.255 Y2.398
X-12.002 Y2.449
X-11.769 Y2.557
X-11.566 Y2.716
X-11.406 Y2.917
X-11.297 Y3.15
X-11.218 Y3.388
G3 X-11.433 Y3.782 Z-1.8 I-0.305 J0.09
G1 X-11.495 Y3.794
X-11.559 Y3.793
X-11.621 Y3.78
X-11.675 Y3.762
X-12.602 Y3.46
X-12.838 Y3.382
X-12.944 Y3.348 Z-1.845
G3 X-13.163 Y3.057 Z-2 I0.098 J-0.302
G1 Y2.782
X-13.155 Y2.632
X-13.081 Y2.501
X-12.978 Y2.393
X-12.857 Y2.304
X-12.723 Y2.236
X-12.449 Y2.182
X-12.171 Y2.202
X-11.907 Y2.293
X-11.677 Y2.45
X-11.495 Y2.662
X-11.375 Y2.914
X-11.297 Y3.15
G3 X-11.512 Y3.544 Z-1.8 I-0.305 J0.09
G1 X-11.579 Y3.556
X-11.648 Y3.554
X-11.714 Y3.537
X-11.754 Y3.522
X-12.608 Y3.2
X-12.84 Y3.112
X-12.957 Y3.068 Z-1.85
G3 X-13.163 Y2.782 Z-2 I0.112 J-0.297
G1 Y2.547
X-13.155 Y2.397
X-13.078 Y2.268
X-12.973 Y2.161
X-12.85 Y2.075
X-12.615 Y2
X-12.369 Y1.983
X-12.126 Y2.026
X-11.9 Y2.125
X-11.705 Y2.275
X-11.551 Y2.468
X-11.447 Y2.691
X-11.375 Y2.914
G3 X-11.592 Y3.306 Z-1.8 I-0.305 J0.087
G1 X-11.661 Y3.318
X-11.731 Y3.315
X-11.798 Y3.296
X-11.834 Y3.282
X-12.61 Y2.971
X-12.841 Y2.879
X-12.963 Y2.831 Z-1.853
G3 X-13.163 Y2.547 Z-2 I0.118 J-0.295
G1 Y2.31
X-13.159 Y2.235
X-13.102 Y2.096
X-13.004 Y1.983
X-12.884 Y1.892
X-12.751 Y1.824
X-12.608 Y1.779
X-12.457 Y1.753
X-12.195 Y1.785
X-11.951 Y1.887
X-11.744 Y2.051
X-11.591 Y2.266
X-11.501 Y2.515
X-11.475 Y2.605
X-11.447 Y2.691
G3 X-11.665 Y3.084 Z-1.8 I-0.305 J0.087
G1 X-11.718 Y3.094
X-11.773 Y3.095
X-11.828 Y3.087
X-11.88 Y3.069
X-11.906 Y3.058
X-12.615 Y2.747
X-12.843 Y2.647
X-12.973 Y2.59 Z-1.857
G3 X-13.163 Y2.31 Z-2 I0.128 J-0.291
G1 Y2.153
X-13.155 Y2.003
X-13.089 Y1.869
X-12.989 Y1.756
X-12.87 Y1.665
X-12.737 Y1.597
X-12.482 Y1.555
X-12.225 Y1.585
X-11.987 Y1.684
X-11.785 Y1.845
X-11.634 Y2.055
X-11.547 Y2.298
X-11.501 Y2.515
G3 X-11.76 Y2.882 Z-1.8 I-0.313 J0.054
G1 X-11.82 Y2.886
X-11.879 Y2.88
X-11.936 Y2.862
X-12 Y2.836
X-12.612 Y2.582
X-12.841 Y2.487
X-12.967 Y2.435 Z-1.854
G3 X-13.163 Y2.153 Z-2 I0.121 J-0.293
G1 Y1.918
X-13.155 Y1.768
X-13.083 Y1.637
X-12.981 Y1.527
X-12.857 Y1.442
X-12.633 Y1.378
X-12.4 Y1.372
X-12.172 Y1.425
X-11.965 Y1.533
X-11.792 Y1.689
X-11.663 Y1.883
X-11.587 Y2.104
X-11.547 Y2.298
G3 X-11.805 Y2.665 Z-1.8 I-0.313 J0.054
G1 X-11.868 Y2.669
X-11.931 Y2.661
X-11.99 Y2.641
X-12.044 Y2.617
X-12.617 Y2.358
X-12.843 Y2.256
X-12.976 Y2.196 Z-1.858
G3 X-13.163 Y1.918 Z-2 I0.131 J-0.289
G1 Y1.682
X-13.155 Y1.532
X-13.075 Y1.405
X-12.964 Y1.304
X-12.834 Y1.23
X-12.693 Y1.178
X-12.458 Y1.163
X-12.226 Y1.21
X-12.015 Y1.315
X-11.838 Y1.471
X-11.707 Y1.667
X-11.631 Y1.89
X-11.587 Y2.104
G3 X-11.846 Y2.471 Z-1.8 I-0.313 J0.054
G1 X-11.914 Y2.475
X-11.982 Y2.465
X-12.046 Y2.44
X-12.084 Y2.42
X-12.626 Y2.141
X-12.847 Y2.027
X-12.991 Y1.953 Z-1.865
G3 X-13.163 Y1.682 Z-2 I0.146 J-0.282
G1 Y1.491
X-13.155 Y1.341
X-13.079 Y1.212
X-12.973 Y1.106
X-12.844 Y1.029
X-12.596 Y0.976
X-12.344 Y0.996
X-12.107 Y1.087
X-11.906 Y1.242
X-11.757 Y1.446
X-11.672 Y1.685
X-11.631 Y1.89
G3 X-11.892 Y2.255 Z-1.8 I-0.313 J0.052
G1 X-11.959 Y2.259
X-12.026 Y2.249
X-12.089 Y2.225
X-12.129 Y2.204
X-12.626 Y1.949
X-12.847 Y1.836
X-12.99 Y1.763 Z-1.865
G3 X-13.163 Y1.491 Z-2 I0.145 J-0.283
G1 Y1.289
X-13.155 Y1.14
X-13.081 Y1.009
X-12.969 Y0.909
X-12.839 Y0.835
X-12.697 Y0.785
X-12.477 Y0.78
X-12.263 Y0.83
X-12.068 Y0.933
X-11.905 Y1.081
X-11.785 Y1.265
X-11.714 Y1.474
X-11.672 Y1.685
G3 X-11.933 Y2.05 Z-1.8 I-0.313 J0.052
G1 X-12.002 Y2.054
X-12.07 Y2.043
X-12.135 Y2.017
X-12.17 Y1.998
X-12.629 Y1.754
X-12.848 Y1.637
X-12.995 Y1.558 Z-1.867
G3 X-13.163 Y1.289 Z-2 I0.149 J-0.28
G1 Y1.053
X-13.159 Y0.978
X-13.094 Y0.842
X-12.993 Y0.732
X-12.866 Y0.652
X-12.726 Y0.598
X-12.511 Y0.586
X-12.299 Y0.63
X-12.106 Y0.727
X-11.944 Y0.87
X-11.825 Y1.051
X-11.757 Y1.256
X-11.714 Y1.474
G3 X-11.976 Y1.839 Z-1.8 I-0.313 J0.052
G1 X-12.031 Y1.843
X-12.086 Y1.837
X-12.139 Y1.823
X-12.189 Y1.799
X-12.212 Y1.785
X-12.638 Y1.533
X-12.852 Y1.407
X-13.007 Y1.315 Z-1.872
G3 X-13.163 Y1.053 Z-2 I0.162 J-0.273
G1 Y0.896
X-13.155 Y0.746
X-13.079 Y0.617
X-12.97 Y0.514
X-12.839 Y0.44
X-12.831 Y0.437
X-12.602 Y0.401
X-12.372 Y0.431
X-12.16 Y0.525
X-11.983 Y0.675
X-11.856 Y0.869
X-11.789 Y1.09
X-11.757 Y1.256
G3 X-12.021 Y1.619 Z-1.8 I-0.314 J0.049
G1 X-12.09 Y1.622
X-12.158 Y1.611
X-12.222 Y1.584
X-12.258 Y1.565
X-12.63 Y1.363
X-12.848 Y1.244
X-12.997 Y1.163 Z-1.868
G3 X-13.163 Y0.896 Z-2 I0.152 J-0.279
G1 Y0.699
X-13.155 Y0.55
X-13.08 Y0.42
X-12.966 Y0.322
X-12.833 Y0.252
X-12.689 Y0.209
X-12.479 Y0.217
X-12.277 Y0.28
X-12.099 Y0.392
X-11.956 Y0.548
X-11.858 Y0.734
X-11.812 Y0.94
G3 X-12.111 Y1.274 Z-1.8 I-0.317 J0.017
G1 X-12.177 Y1.271
X-12.24 Y1.255
X-12.349 Y1.214
X-12.607 Y1.117
X-12.84 Y1.03
X-12.957 Y0.986 Z-1.85
G3 X-13.163 Y0.699 Z-2 I0.112 J-0.297
G1 Y0.503
X-13.155 Y0.354
X-13.076 Y0.226
X-12.965 Y0.125
X-12.831 Y0.057
X-12.602 Y0.029
X-12.374 Y0.068
X-12.167 Y0.171
X-11.998 Y0.329
X-11.882 Y0.529
X-11.828 Y0.754
X-11.812 Y0.94
G3 X-12.111 Y1.274 Z-1.8 I-0.317 J0.017
G1 X-12.178 Y1.271
X-12.242 Y1.254
X-12.301 Y1.224
X-12.342 Y1.198
X-12.647 Y0.999
X-12.856 Y0.864
X-13.018 Y0.759 Z-1.878
G3 X-13.163 Y0.503 Z-2 I0.173 J-0.266
G1 Y0.267
X-13.159 Y0.192
X-13.09 Y0.058
X-12.98 Y-0.043
X-12.849 Y-0.116
X-12.705 Y-0.158
X-12.498 Y-0.15
X-12.301 Y-0.088
X-12.126 Y0.023
X-11.986 Y0.175
X-11.89 Y0.359
X-11.845 Y0.561
X-11.828 Y0.754
G3 X-12.128 Y1.088 Z-1.8 I-0.317 J0.017
G1 X-12.182 Y1.087
X-12.236 Y1.076
X-12.287 Y1.055
X-12.333 Y1.027
X-12.357 Y1.01
X-12.663 Y0.785
X-12.862 Y0.637
X-13.033 Y0.511 Z-1.885
G3 X-13.163 Y0.267 Z-2 I0.188 J-0.256
G1 Y0.11
X-13.159 Y0.035
X-13.1 Y-0.103
X-12.999 Y-0.214
X-12.87 Y-0.291
X-12.728 Y-0.339
X-12.521 Y-0.338
X-12.322 Y-0.281
X-12.145 Y-0.173
X-12.003 Y-0.023
X-11.906 Y0.16
X-11.862 Y0.363
X-11.845 Y0.561
G3 X-12.145 Y0.894 Z-1.8 I-0.317 J0.017
G1 X-12.216 Y0.89
X-12.283 Y0.871
X-12.345 Y0.837
X-12.375 Y0.816
X-12.656 Y0.619
X-12.86 Y0.476
X-13.027 Y0.359 Z-1.882
G3 X-13.163 Y0.11 Z-2 I0.182 J-0.26
G1 Y-0.048
X-13.155 Y-0.197
X-13.079 Y-0.327
X-12.968 Y-0.428
X-12.835 Y-0.496
X-12.613 Y-0.519
X-12.394 Y-0.478
X-12.196 Y-0.376
X-12.036 Y-0.222
X-11.926 Y-0.028
X-11.876 Y0.189
X-11.862 Y0.363
G3 X-12.164 Y0.694 Z-1.8 I-0.317 J0.015
G1 X-12.23 Y0.691
X-12.294 Y0.673
X-12.353 Y0.643
X-12.394 Y0.616
X-12.648 Y0.45
X-12.856 Y0.314
X-13.019 Y0.207 Z-1.878
G3 X-13.163 Y-0.048 Z-2 I0.174 J-0.266
G1 Y-0.244
X-13.155 Y-0.393
X-13.077 Y-0.521
X-12.959 Y-0.614
X-12.823 Y-0.677
X-12.677 Y-0.712
X-12.446 Y-0.682
X-12.235 Y-0.585
X-12.063 Y-0.43
X-11.945 Y-0.23
X-11.892 Y-0.004
X-11.876 Y0.189
G3 X-12.178 Y0.521 Z-1.8 I-0.317 J0.015
G1 X-12.248 Y0.517
X-12.315 Y0.497
X-12.376 Y0.464
X-12.408 Y0.441
X-12.657 Y0.266
X-12.86 Y0.123
X-13.028 Y0.005 Z-1.882
G3 X-13.163 Y-0.244 Z-2 I0.183 J-0.26
G1 Y-0.44
X-13.159 Y-0.515
X-13.105 Y-0.655
X-13.003 Y-0.764
X-12.875 Y-0.843
X-12.732 Y-0.889
X-12.493 Y-0.873
X-12.271 Y-0.783
X-12.089 Y-0.629
X-11.963 Y-0.425
X-11.907 Y-0.192
X-11.892 Y-0.004
G3 X-12.195 Y0.327 Z-1.8 I-0.317 J0.014
G1 X-12.265 Y0.322
X-12.333 Y0.302
X-12.395 Y0.267
X-12.424 Y0.246
X-12.66 Y0.075
X-12.861 Y-0.071
X-13.031 Y-0.194 Z-1.884
G3 X-13.163 Y-0.44 Z-2 I0.186 J-0.257
G1 Y-0.629
X-13.159 Y-0.704
X-13.101 Y-0.842
X-12.999 Y-0.952
X-12.868 Y-1.025
X-12.725 Y-1.07
X-12.492 Y-1.052
X-12.276 Y-0.964
X-12.099 Y-0.812
X-11.976 Y-0.614
X-11.922 Y-0.387
X-11.907 Y-0.192
G3 X-12.21 Y0.139 Z-1.8 I-0.317 J0.014
G1 X-12.264 Y0.136
X-12.317 Y0.125
X-12.367 Y0.105
X-12.413 Y0.076
X-12.438 Y0.058
X-12.664 Y-0.11
X-12.863 Y-0.258
X-13.034 Y-0.385 Z-1.886
G3 X-13.163 Y-0.629 Z-2 I0.189 J-0.255
G1 Y-0.786
X-13.155 Y-0.936
X-13.077 Y-1.064
X-12.964 Y-1.163
X-12.828 Y-1.226
X-12.612 Y-1.242
X-12.4 Y-1.194
X-12.212 Y-1.086
X-12.062 Y-0.929
X-11.966 Y-0.734
X-11.93 Y-0.521
G3 X-12.035 Y-0.294 Z-1.896 I-0.306 J-0.005
G1 X-12.099 Y-0.245 Z-1.864
X-12.168 Y-0.204 Z-1.832
X-12.241 Y-0.171 Z-1.8
G3 X-12.972 Y-0.337 I-0.24 J-0.638
X-13.163 Y-0.786 Z-2 I0.491 J-0.473
G1 Y-0.991
X-13.159 Y-1.066
X-13.106 Y-1.206
X-13.002 Y-1.314
X-12.871 Y-1.387
X-12.643 Y-1.412
X-12.418 Y-1.367
X-12.218 Y-1.256
X-12.061 Y-1.089
X-11.962 Y-0.882
X-11.931 Y-0.655
G3 X-12.265 Y-0.355 Z-1.8 I-0.317 J-0.017
G1 X-12.312 Y-0.361
X-12.358 Y-0.374
X-12.402 Y-0.394
X-12.493 Y-0.445
X-12.632 Y-0.521
X-12.849 Y-0.641
X-12.999 Y-0.724 Z-1.869
G3 X-13.163 Y-0.991 Z-2 I0.153 J-0.278
G1 Y-1.181
X-13.159 Y-1.256
X-13.097 Y-1.392
X-12.985 Y-1.492
X-12.851 Y-1.561
X-12.706 Y-1.597
X-12.504 Y-1.576
X-12.315 Y-1.502
X-12.152 Y-1.379
X-12.028 Y-1.218
X-11.952 Y-1.03
X-11.928 Y-0.828
X-11.931 Y-0.655
G3 X-12.265 Y-0.355 Z-1.8 I-0.317 J-0.017
G1 X-12.334 Y-0.367
X-12.399 Y-0.393
X-12.457 Y-0.433
X-12.485 Y-0.457
X-12.687 Y-0.633
X-12.874 Y-0.796
X-13.054 Y-0.953 Z-1.896
G3 X-13.163 Y-1.181 Z-2 I0.209 J-0.239
G1 Y-1.338
X-13.159 Y-1.413
X-13.102 Y-1.552
X-12.998 Y-1.66
X-12.867 Y-1.733
X-12.723 Y-1.775
X-12.574 Y-1.786
X-12.364 Y-1.726
X-12.18 Y-1.609
X-12.039 Y-1.444
X-11.951 Y-1.244
X-11.924 Y-1.028
X-11.928 Y-0.828
G3 X-12.262 Y-0.528 Z-1.8 I-0.317 J-0.017
G1 X-12.329 Y-0.539
X-12.393 Y-0.564
X-12.449 Y-0.602
X-12.482 Y-0.63
X-12.681 Y-0.797
X-12.871 Y-0.957
X-13.049 Y-1.106 Z-1.893
G3 X-13.163 Y-1.338 Z-2 I0.204 J-0.243
G1 Y-1.495
X-13.155 Y-1.645
X-13.076 Y-1.773
X-12.963 Y-1.871
X-12.829 Y-1.939
X-12.604 Y-1.956
X-12.385 Y-1.904
X-12.19 Y-1.789
X-12.04 Y-1.621
X-11.947 Y-1.415
X-11.919 Y-1.191
X-11.924 Y-1.028
G3 X-12.259 Y-0.73 Z-1.8 I-0.317 J-0.018
G1 X-12.321 Y-0.739
X-12.38 Y-0.761
X-12.433 Y-0.794
X-12.481 Y-0.83
X-12.667 Y-0.972
X-12.864 Y-1.122
X-13.037 Y-1.254 Z-1.887
G3 X-13.163 Y-1.495 Z-2 I0.192 J-0.253
G1 Y-1.697
X-13.159 Y-1.772
X-13.106 Y-1.913
X-13.004 Y-2.023
X-12.874 Y-2.098
X-12.641 Y-2.125
X-12.41 Y-2.08
X-12.204 Y-1.965
X-12.044 Y-1.793
X-11.944 Y-1.58
X-11.915 Y-1.347
X-11.919 Y-1.191
G3 X-12.257 Y-0.895 Z-1.8 I-0.317 J-0.021
G1 X-12.321 Y-0.906
X-12.382 Y-0.93
X-12.437 Y-0.966
X-12.477 Y-0.998
X-12.677 Y-1.161
X-12.869 Y-1.318
X-13.046 Y-1.462 Z-1.891
G3 X-13.163 Y-1.697 Z-2 I0.201 J-0.246
G1 Y-1.886
X-13.159 Y-1.961
X-13.1 Y-2.099
X-12.99 Y-2.201
X-12.857 Y-2.271
X-12.712 Y-2.31
X-12.503 Y-2.291
X-12.307 Y-2.216
X-12.138 Y-2.09
X-12.01 Y-1.923
X-11.932 Y-1.728
X-11.909 Y-1.519
X-11.915 Y-1.347
G3 X-12.252 Y-1.051 Z-1.8 I-0.317 J-0.021
G1 X-12.319 Y-1.062
X-12.383 Y-1.088
X-12.439 Y-1.127
X-12.471 Y-1.155
X-12.685 Y-1.34
X-12.873 Y-1.502
X-13.053 Y-1.657 Z-1.895
G3 X-13.163 Y-1.886 Z-2 I0.207 J-0.24
G1 Y-2.043
X-13.159 Y-2.118
X-13.106 Y-2.259
X-13.003 Y-2.368
X-12.874 Y-2.443
X-12.73 Y-2.488
X-12.581 Y-2.5
X-12.362 Y-2.442
X-12.17 Y-2.322
X-12.021 Y-2.151
X-11.93 Y-1.944
X-11.903 Y-1.719
X-11.909 Y-1.519
G3 X-12.247 Y-1.223 Z-1.8 I-0.317 J-0.021
G1 X-12.312 Y-1.235
X-12.374 Y-1.259
X-12.429 Y-1.296
X-12.467 Y-1.327
X-12.679 Y-1.504
X-12.87 Y-1.663
X-13.048 Y-1.81 Z-1.893
G3 X-13.163 Y-2.043 Z-2 I0.203 J-0.244
G1 Y-2.248
X-13.159 Y-2.323
X-13.093 Y-2.458
X-12.987 Y-2.564
X-12.857 Y-2.64
X-12.624 Y-2.667
X-12.393 Y-2.621
X-12.187 Y-2.506
X-12.027 Y-2.334
X-11.927 Y-2.121
X-11.898 Y-1.887
X-11.903 Y-1.719
G3 X-12.241 Y-1.423 Z-1.8 I-0.317 J-0.021
G1 X-12.306 Y-1.434
X-12.367 Y-1.459
X-12.423 Y-1.496
X-12.46 Y-1.527
X-12.679 Y-1.709
X-12.87 Y-1.868
X-13.048 Y-2.015 Z-1.893
G3 X-13.163 Y-2.248 Z-2 I0.203 J-0.244
G1 Y-2.405
X-13.159 Y-2.48
X-13.106 Y-2.621
X-13.003 Y-2.73
X-12.873 Y-2.806
X-12.73 Y-2.848
X-12.58 Y-2.862
X-12.567 Y-2.861
X-12.339 Y-2.804
X-12.14 Y-2.678
X-11.991 Y-2.497
X-11.905 Y-2.278
X-11.893 Y-2.043
X-11.898 Y-1.887
G3 X-12.235 Y-1.592 Z-1.8 I-0.317 J-0.021
G1 X-12.299 Y-1.602
X-12.359 Y-1.626
X-12.414 Y-1.661
X-12.456 Y-1.695
X-12.675 Y-1.872
X-12.868 Y-2.027
X-13.044 Y-2.169 Z-1.891
G3 X-13.163 Y-2.405 Z-2 I0.199 J-0.247
G1 Y-2.596
X-13.159 Y-2.671
X-13.099 Y-2.808
X-12.995 Y-2.916
X-12.867 Y-2.995
X-12.724 Y-3.04
X-12.575 Y-3.058
X-12.374 Y-3.014
X-12.193 Y-2.918
X-12.043 Y-2.778
X-11.936 Y-2.603
X-11.879 Y-2.406
X-11.876 Y-2.201
X-11.893 Y-2.043
G3 X-12.251 Y-1.773 Z-1.8 I-0.314 J-0.044
G1 X-12.307 Y-1.786
X-12.36 Y-1.809
X-12.408 Y-1.841
X-12.466 Y-1.889
X-12.676 Y-2.06
X-12.869 Y-2.217
X-13.046 Y-2.361 Z-1.891
G3 X-13.163 Y-2.596 Z-2 I0.2 J-0.246
G1 Y-2.753
X-13.155 Y-2.903
X-13.078 Y-3.031
X-12.966 Y-3.131
X-12.835 Y-3.204
X-12.69 Y-3.244
X-12.461 Y-3.225
X-12.247 Y-3.141
X-12.067 Y-2.999
X-11.935 Y-2.811
X-11.863 Y-2.592
X-11.857 Y-2.363
X-11.876 Y-2.201
G3 X-12.239 Y-1.936 Z-1.8 I-0.314 J-0.049
G1 X-12.291 Y-1.949
X-12.341 Y-1.97
X-12.386 Y-2
X-12.454 Y-2.053
X-12.671 Y-2.224
X-12.866 Y-2.377
X-13.041 Y-2.514 Z-1.889
G3 X-13.163 Y-2.753 Z-2 I0.196 J-0.25
G1 Y-2.955
X-13.155 Y-3.105
X-13.075 Y-3.232
X-12.963 Y-3.331
X-12.828 Y-3.396
X-12.683 Y-3.433
X-12.533 Y-3.442
X-12.329 Y-3.389
X-12.146 Y-3.284
X-11.996 Y-3.135
X-11.89 Y-2.952
X-11.835 Y-2.749
Y-2.538
X-11.857 Y-2.363
G3 X-12.219 Y-2.098 Z-1.8 I-0.314 J-0.049
G1 X-12.274 Y-2.112
X-12.325 Y-2.135
X-12.372 Y-2.166
X-12.433 Y-2.217
X-12.678 Y-2.418
X-12.87 Y-2.575
X-13.047 Y-2.72 Z-1.892
G3 X-13.163 Y-2.955 Z-2 I0.201 J-0.245
G1 Y-3.144
X-13.155 Y-3.294
X-13.075 Y-3.421
X-12.963 Y-3.52
X-12.831 Y-3.592
X-12.687 Y-3.631
X-12.445 Y-3.615
X-12.219 Y-3.529
X-12.028 Y-3.38
X-11.89 Y-3.182
X-11.816 Y-2.951
X-11.813 Y-2.709
X-11.835 Y-2.538
G3 X-12.2 Y-2.277 Z-1.8 I-0.313 J-0.052
G1 X-12.253 Y-2.29
X-12.303 Y-2.313
X-12.348 Y-2.343
X-12.414 Y-2.396
X-12.676 Y-2.609
X-12.869 Y-2.765
X-13.045 Y-2.908 Z-1.891
G3 X-13.163 Y-3.144 Z-2 I0.2 J-0.247
G1 Y-3.348
X-13.159 Y-3.423
X-13.105 Y-3.564
X-13.006 Y-3.676
X-12.88 Y-3.757
X-12.739 Y-3.809
X-12.518 Y-3.811
X-12.305 Y-3.755
X-12.113 Y-3.646
X-11.957 Y-3.49
X-11.847 Y-3.298
X-11.79 Y-3.085
X-11.791 Y-2.864
X-11.813 Y-2.709
G3 X-12.179 Y-2.451 Z-1.8 I-0.313 J-0.054
G1 X-12.233 Y-2.465
X-12.283 Y-2.488
X-12.328 Y-2.519
X-12.392 Y-2.572
X-12.679 Y-2.81
X-12.87 Y-2.968
X-13.048 Y-3.115 Z-1.892
G3 X-13.163 Y-3.348 Z-2 I0.202 J-0.245
G1 Y-3.539
X-13.159 Y-3.614
X-13.103 Y-3.753
X-13.005 Y-3.866
X-12.877 Y-3.945
X-12.735 Y-3.995
X-12.587 Y-4.017
X-12.352 Y-3.976
X-12.138 Y-3.871
X-11.96 Y-3.711
X-11.834 Y-3.509
X-11.768 Y-3.279
X-11.767 Y-3.041
X-11.791 Y-2.864
G3 X-12.158 Y-2.606 Z-1.8 I-0.313 J-0.054
G1 X-12.213 Y-2.62
X-12.264 Y-2.644
X-12.31 Y-2.677
X-12.37 Y-2.728
X-12.683 Y-2.995
X-12.872 Y-3.156
X-13.051 Y-3.308 Z-1.894
G3 X-13.163 Y-3.539 Z-2 I0.206 J-0.242
G1 Y-3.702
X-13.155 Y-3.852
X-13.08 Y-3.981
X-12.97 Y-4.083
X-12.84 Y-4.158
X-12.696 Y-4.201
X-12.472 Y-4.196
X-12.256 Y-4.133
X-12.063 Y-4.017
X-11.907 Y-3.856
X-11.797 Y-3.66
X-11.741 Y-3.442
X-11.743 Y-3.217
X-11.767 Y-3.041
G3 X-12.134 Y-2.782 Z-1.8 I-0.313 J-0.054
G1 X-12.186 Y-2.796
X-12.235 Y-2.818
X-12.279 Y-2.848
X-12.347 Y-2.902
X-12.675 Y-3.168
X-12.868 Y-3.324
X-13.045 Y-3.466 Z-1.891
G3 X-13.163 Y-3.702 Z-2 I0.199 J-0.247
G1 Y-3.898
X-13.155 Y-4.048
X-13.08 Y-4.178
X-12.971 Y-4.281
X-12.839 Y-4.351
X-12.695 Y-4.394
X-12.546 Y-4.412
X-12.307 Y-4.363
X-12.09 Y-4.252
X-11.911 Y-4.086
X-11.784 Y-3.878
X-11.718 Y-3.643
Y-3.399
X-11.743 Y-3.217
G3 X-12.109 Y-2.959 Z-1.8 I-0.313 J-0.054
G1 X-12.161 Y-2.972
X-12.21 Y-2.994
X-12.255 Y-3.024
X-12.323 Y-3.079
X-12.675 Y-3.364
X-12.868 Y-3.52
X-13.045 Y-3.662 Z-1.891
G3 X-13.163 Y-3.898 Z-2 I0.199 J-0.247
G1 Y-4.134
X-13.159 Y-4.209
X-13.094 Y-4.345
X-12.991 Y-4.454
X-12.866 Y-4.536
X-12.724 Y-4.587
X-12.577 Y-4.613
X-12.324 Y-4.574
X-12.093 Y-4.466
X-11.901 Y-4.297
X-11.764 Y-4.082
X-11.692 Y-3.837
Y-3.582
X-11.718 Y-3.399
G3 X-12.085 Y-3.141 Z-1.8 I-0.313 J-0.054
G1 X-12.139 Y-3.155
X-12.19 Y-3.179
X-12.236 Y-3.211
X-12.296 Y-3.263
X-12.683 Y-3.591
X-12.872 Y-3.752
X-13.051 Y-3.904 Z-1.894
G3 X-13.163 Y-4.134 Z-2 I0.206 J-0.242
G1 Y-4.292
X-13.155 Y-4.441
X-13.079 Y-4.57
X-12.969 Y-4.673
X-12.84 Y-4.75
X-12.697 Y-4.796
X-12.549 Y-4.817
X-12.319 Y-4.783
X-12.105 Y-4.692
X-11.92 Y-4.55
X-11.777 Y-4.366
X-11.684 Y-4.153
X-11.648 Y-3.923
X-11.67 Y-3.692
G3 X-12.057 Y-3.465 Z-1.8 I-0.307 J-0.081
G1 X-12.101 Y-3.48
X-12.143 Y-3.501
X-12.275 Y-3.582
X-12.641 Y-3.806
X-12.853 Y-3.935
X-13.011 Y-4.032 Z-1.874
G3 X-13.163 Y-4.292 Z-2 I0.166 J-0.271
G1 Y-4.488
X-13.155 Y-4.638
X-13.081 Y-4.768
X-12.973 Y-4.872
X-12.845 Y-4.951
X-12.703 Y-5
X-12.555 Y-5.024
X-12.405 Y-5.025
X-12.159 Y-4.949
X-11.941 Y-4.81
X-11.769 Y-4.618
X-11.654 Y-4.387
X-11.606 Y-4.133
X-11.628 Y-3.876
X-11.67 Y-3.692
G3 X-12.057 Y-3.465 Z-1.8 I-0.307 J-0.081
G1 X-12.123 Y-3.49
X-12.181 Y-3.529
X-12.264 Y-3.598
X-12.681 Y-3.947
X-12.871 Y-4.106
X-13.049 Y-4.255 Z-1.893
G3 X-13.163 Y-4.488 Z-2 I0.204 J-0.243
G1 Y-4.716
X-13.159 Y-4.791
X-13.102 Y-4.929
X-13.004 Y-5.043
X-12.883 Y-5.132
X-12.747 Y-5.196
X-12.602 Y-5.231
X-12.452 Y-5.243
X-12.221 Y-5.194
X-12.008 Y-5.09
X-11.827 Y-4.937
X-11.687 Y-4.746
X-11.598 Y-4.527
X-11.564 Y-4.292
X-11.588 Y-4.057
X-11.628 Y-3.876
G3 X-12.016 Y-3.649 Z-1.8 I-0.307 J-0.081
G1 X-12.082 Y-3.675
X-12.141 Y-3.714
X-12.222 Y-3.783
X-12.682 Y-4.173
X-12.872 Y-4.333
X-13.05 Y-4.484 Z-1.894
G3 X-13.163 Y-4.716 Z-2 I0.205 J-0.242
G1 Y-4.873
X-13.155 Y-5.023
X-13.088 Y-5.157
X-12.986 Y-5.267
X-12.862 Y-5.352
X-12.726 Y-5.414
X-12.58 Y-5.448
X-12.315 Y-5.429
X-12.065 Y-5.341
X-11.847 Y-5.19
X-11.677 Y-4.987
X-11.566 Y-4.747
X-11.522 Y-4.486
X-11.549 Y-4.222
X-11.588 Y-4.057
G3 X-11.975 Y-3.83 Z-1.8 I-0.307 J-0.081
G1 X-12.036 Y-3.853
X-12.091 Y-3.888
X-12.184 Y-3.961
X-12.671 Y-4.344
X-12.867 Y-4.497
X-13.041 Y-4.634 Z-1.889
G3 X-13.163 Y-4.873 Z-2 I0.196 J-0.25
G1 Y-5.111
X-13.155 Y-5.261
X-13.077 Y-5.389
X-12.97 Y-5.494
X-12.844 Y-5.576
X-12.705 Y-5.63
X-12.558 Y-5.66
X-12.408 Y-5.668
X-12.163 Y-5.614
X-11.938 Y-5.502
X-11.747 Y-5.338
X-11.601 Y-5.134
X-11.509 Y-4.9
X-11.477 Y-4.651
X-11.506 Y-4.401
X-11.549 Y-4.222
G3 X-11.939 Y-4 Z-1.8 I-0.306 J-0.084
G1 X-12.001 Y-4.024
X-12.057 Y-4.061
X-12.145 Y-4.134
X-12.678 Y-4.573
X-12.87 Y-4.731
X-13.047 Y-4.877 Z-1.892
G3 X-13.163 Y-5.111 Z-2 I0.202 J-0.245
G1 Y-5.313
X-13.155 Y-5.462
X-13.082 Y-5.593
X-12.977 Y-5.7
X-12.852 Y-5.784
X-12.715 Y-5.844
X-12.569 Y-5.879
X-12.419 Y-5.891
X-12.161 Y-5.843
X-11.923 Y-5.732
X-11.72 Y-5.566
X-11.564 Y-5.355
X-11.466 Y-5.112
X-11.43 Y-4.852
X-11.46 Y-4.591
X-11.506 Y-4.401
G3 X-11.896 Y-4.18 Z-1.8 I-0.306 J-0.085
G1 X-11.957 Y-4.204
X-12.011 Y-4.24
X-12.103 Y-4.314
X-12.676 Y-4.778
X-12.869 Y-4.934
X-13.045 Y-5.077 Z-1.891
G3 X-13.163 Y-5.313 Z-2 I0.2 J-0.247
G1 Y-5.549
X-13.159 Y-5.624
X-13.102 Y-5.763
X-13.009 Y-5.88
X-12.892 Y-5.974
X-12.759 Y-6.045
X-12.616 Y-6.089
X-12.468 Y-6.112
X-12.191 Y-6.076
X-11.932 Y-5.969
X-11.709 Y-5.801
X-11.537 Y-5.581
X-11.426 Y-5.324
X-11.385 Y-5.048
X-11.416 Y-4.77
X-11.46 Y-4.591
G3 X-11.851 Y-4.371 Z-1.8 I-0.306 J-0.086
G1 X-11.912 Y-4.395
X-11.966 Y-4.431
X-12.057 Y-4.505
X-12.677 Y-5.013
X-12.869 Y-5.17
X-13.046 Y-5.314 Z-1.892
G3 X-13.163 Y-5.549 Z-2 I0.201 J-0.246
G1 Y-5.739
X-13.155 Y-5.889
X-13.081 Y-6.02
X-12.978 Y-6.129
X-12.856 Y-6.216
X-12.72 Y-6.278
X-12.575 Y-6.319
X-12.309 Y-6.316
X-12.051 Y-6.25
X-11.816 Y-6.125
X-11.617 Y-5.947
X-11.467 Y-5.727
X-11.373 Y-5.478
X-11.341 Y-5.213
X-11.372 Y-4.949
X-11.416 Y-4.77
G3 X-11.808 Y-4.55 Z-1.8 I-0.306 J-0.086
G1 X-11.866 Y-4.573
X-11.919 Y-4.608
X-12.015 Y-4.683
X-12.673 Y-5.208
X-12.867 Y-5.362
X-13.043 Y-5.502 Z-1.89
G3 X-13.163 Y-5.739 Z-2 I0.198 J-0.248
G1 Y-5.941
X-13.155 Y-6.091
X-13.088 Y-6.226
X-12.988 Y-6.337
X-12.868 Y-6.427
X-12.732 Y-6.491
X-12.588 Y-6.532
X-12.44 Y-6.553
X-12.145 Y-6.514
X-11.87 Y-6.401
X-11.633 Y-6.22
X-11.451 Y-5.985
X-11.335 Y-5.711
X-11.293 Y-5.416
X-11.329 Y-5.121
X-11.372 Y-4.949
G3 X-11.764 Y-4.729 Z-1.8 I-0.306 J-0.086
G1 X-11.822 Y-4.752
X-11.874 Y-4.785
X-11.971 Y-4.862
X-12.671 Y-5.412
X-12.867 Y-5.565
X-13.041 Y-5.703 Z-1.889
G3 X-13.163 Y-5.941 Z-2 I0.196 J-0.25
G1 Y-6.178
X-13.155 Y-6.328
X-13.081 Y-6.458
X-12.977 Y-6.567
X-12.855 Y-6.654
X-12.72 Y-6.718
X-12.576 Y-6.76
X-12.427 Y-6.781
X-12.277 Y-6.782
X-12.128 Y-6.765
X-11.868 Y-6.666
X-11.639 Y-6.509
X-11.452 Y-6.302
X-11.318 Y-6.058
X-11.245 Y-5.79
X-11.237 Y-5.512
X-11.293 Y-5.24
G3 X-11.701 Y-5.053 Z-1.8 I-0.298 J-0.111
G1 X-11.735 Y-5.068
X-11.767 Y-5.087
X-11.912 Y-5.183
X-12.651 Y-5.677
X-12.857 Y-5.815
X-13.022 Y-5.925 Z-1.879
G3 X-13.163 Y-6.178 Z-2 I0.176 J-0.264
G1 Y-6.413
X-13.155 Y-6.563
X-13.076 Y-6.69
X-12.971 Y-6.797
X-12.849 Y-6.884
X-12.714 Y-6.95
X-12.571 Y-6.996
X-12.424 Y-7.023
X-12.274 Y-7.028
X-12.124 Y-7.015
X-11.848 Y-6.92
X-11.603 Y-6.761
X-11.402 Y-6.549
X-11.258 Y-6.295
X-11.178 Y-6.014
X-11.168 Y-5.722
X-11.228 Y-5.436
X-11.293 Y-5.24
G3 X-11.701 Y-5.053 Z-1.8 I-0.298 J-0.111
G1 X-11.752 Y-5.077
X-11.797 Y-5.109
X-11.901 Y-5.198
X-12.684 Y-5.868
X-12.873 Y-6.03
X-13.052 Y-6.183 Z-1.895
G3 X-13.163 Y-6.413 Z-2 I0.206 J-0.241
G1 Y-6.649
X-13.155 Y-6.799
X-13.074 Y-6.925
X-12.969 Y-7.033
X-12.847 Y-7.12
X-12.714 Y-7.189
X-12.572 Y-7.238
X-12.425 Y-7.267
X-12.275 Y-7.276
X-12.125 Y-7.268
X-11.978 Y-7.24
X-11.834 Y-7.198
X-11.568 Y-7.041
X-11.349 Y-6.824
X-11.19 Y-6.558
X-11.102 Y-6.262
X-11.09 Y-5.954
X-11.153 Y-5.652
X-11.228 Y-5.436
G3 X-11.636 Y-5.25 Z-1.8 I-0.297 J-0.112
G1 X-11.685 Y-5.274
X-11.729 Y-5.305
X-11.836 Y-5.395
X-12.682 Y-6.107
X-12.872 Y-6.267
X-13.05 Y-6.418 Z-1.894
G3 X-13.163 Y-6.649 Z-2 I0.205 J-0.243
G1 Y-6.84
X-13.155 Y-6.99
X-13.089 Y-7.124
X-12.992 Y-7.239
X-12.876 Y-7.334
X-12.747 Y-7.41
X-12.608 Y-7.467
X-12.463 Y-7.506
X-12.315 Y-7.527
X-12.165 Y-7.532
X-12.016 Y-7.516
X-11.869 Y-7.485
X-11.854 Y-7.48
X-11.599 Y-7.36
X-11.378 Y-7.186
X-11.201 Y-6.967
X-11.077 Y-6.714
X-11.013 Y-6.44
X-11.012 Y-6.158
X-11.073 Y-5.883
X-11.153 Y-5.652
G3 X-11.564 Y-5.469 Z-1.8 I-0.296 J-0.114
G1 X-11.606 Y-5.489
X-11.645 Y-5.515
X-11.767 Y-5.61
X-12.67 Y-6.312
X-12.866 Y-6.465
X-13.04 Y-6.6 Z-1.889
G3 X-13.163 Y-6.84 Z-2 I0.195 J-0.251
G1 Y-7.073
X-13.155 Y-7.223
X-13.088 Y-7.357
X-12.993 Y-7.473
X-12.879 Y-7.571
X-12.752 Y-7.651
X-12.615 Y-7.713
X-12.472 Y-7.757
X-12.324 Y-7.784
X-12.175 Y-7.794
X-12.025 Y-7.785
X-11.877 Y-7.762
X-11.828 Y-7.748
X-11.56 Y-7.636
X-11.325 Y-7.465
X-11.135 Y-7.245
X-11.001 Y-6.987
X-10.93 Y-6.705
X-10.925 Y-6.414
X-10.988 Y-6.13
X-11.073 Y-5.883
G3 X-11.483 Y-5.701 Z-1.8 I-0.296 J-0.114
G1 X-11.522 Y-5.719
X-11.558 Y-5.742
X-11.689 Y-5.839
X-12.663 Y-6.556
X-12.862 Y-6.703
X-13.033 Y-6.829 Z-1.885
G3 X-13.163 Y-7.073 Z-2 I0.188 J-0.256
G1 Y-7.311
X-13.155 Y-7.461
X-13.089 Y-7.596
X-12.996 Y-7.714
X-12.885 Y-7.814
X-12.76 Y-7.897
X-12.625 Y-7.963
X-12.483 Y-8.011
X-12.337 Y-8.044
X-12.187 Y-8.059
X-12.037 Y-8.057
X-11.888 Y-8.04
X-11.742 Y-8.007
X-11.599 Y-7.96
X-11.463 Y-7.898
X-11.452 Y-7.892
X-11.217 Y-7.717
X-11.029 Y-7.493
X-10.898 Y-7.232
X-10.831 Y-6.947
X-10.832 Y-6.654
X-10.9 Y-6.37
X-10.988 Y-6.13
G3 X-11.401 Y-5.954 Z-1.8 I-0.295 J-0.118
G1 X-11.462 Y-5.987
X-11.609 Y-6.088
X-12.654 Y-6.806
X-12.859 Y-6.946
X-13.025 Y-7.061 Z-1.881
G3 X-13.163 Y-7.311 Z-2 I0.18 J-0.262
G1 Y-7.545
X-13.155 Y-7.695
X-13.094 Y-7.832
X-13.005 Y-7.952
X-12.896 Y-8.056
X-12.774 Y-8.143
X-12.641 Y-8.213
X-12.501 Y-8.266
X-12.356 Y-8.304
X-12.208 Y-8.326
X-12.058 Y-8.334
X-11.908 Y-8.326
X-11.76 Y-8.305
X-11.614 Y-8.266
X-11.473 Y-8.216
X-11.338 Y-8.15
X-11.324 Y-8.141
X-11.092 Y-7.961
X-10.91 Y-7.731
X-10.786 Y-7.465
X-10.727 Y-7.178
X-10.737 Y-6.885
X-10.815 Y-6.602
X-10.9 Y-6.37
G3 X-11.314 Y-6.196 Z-1.8 I-0.294 J-0.12
G1 X-11.366 Y-6.224
X-11.526 Y-6.326
X-12.647 Y-7.05
X-12.855 Y-7.185
X-13.017 Y-7.289 Z-1.877
G3 X-13.163 Y-7.545 Z-2 I0.172 J-0.267
G1 Y-7.789
X-13.155 Y-7.938
X-13.097 Y-8.077
X-13.01 Y-8.199
X-12.904 Y-8.305
X-12.784 Y-8.395
X-12.653 Y-8.469
X-12.515 Y-8.527
X-12.372 Y-8.571
X-12.224 Y-8.6
X-12.075 Y-8.614
X-11.925
X-11.776 Y-8.601
X-11.628 Y-8.574
X-11.484 Y-8.531
X-11.345 Y-8.476
X-11.212 Y-8.407
X-11.189 Y-8.393
X-10.96 Y-8.203
X-10.781 Y-7.965
X-10.663 Y-7.692
X-10.613 Y-7.398
X-10.634 Y-7.101
X-10.724 Y-6.818
X-10.751 Y-6.759
X-10.815 Y-6.602
G3 X-11.234 Y-6.442 Z-1.8 I-0.29 J-0.13
G1 X-11.27 Y-6.461
X-11.447 Y-6.57
X-12.641 Y-7.302
X-12.853 Y-7.432
X-13.011 Y-7.529 Z-1.874
G3 X-13.163 Y-7.789 Z-2 I0.166 J-0.271
G1 Y-8.064
X-13.155 Y-8.214
X-13.092 Y-8.35
X-13.003 Y-8.471
X-12.896 Y-8.576
X-12.776 Y-8.666
X-12.646 Y-8.741
X-12.509 Y-8.801
X-12.366 Y-8.847
X-12.22 Y-8.88
X-12.071 Y-8.899
X-11.921 Y-8.904
X-11.771 Y-8.896
X-11.623 Y-8.876
X-11.477 Y-8.842
X-11.335 Y-8.793
X-11.197 Y-8.733
X-11.067 Y-8.659
X-10.94 Y-8.572
X-10.751 Y-8.377
X-10.609 Y-8.145
X-10.52 Y-7.888
X-10.488 Y-7.618
X-10.516 Y-7.347
X-10.601 Y-7.089
X-10.724 Y-6.818
G3 X-11.15 Y-6.675 Z-1.8 I-0.284 J-0.141
G1 X-11.173 Y-6.688
X-11.362 Y-6.803
X-12.64 Y-7.579
X-12.853 Y-7.708
X-13.01 Y-7.804 Z-1.874
G3 X-13.163 Y-8.064 Z-2 I0.165 J-0.271
G1 Y-8.299
X-13.155 Y-8.449
X-13.1 Y-8.589
X-13.018 Y-8.714
X-12.916 Y-8.824
X-12.8 Y-8.919
X-12.673 Y-8.999
X-12.538 Y-9.065
X-12.398 Y-9.118
X-12.253 Y-9.157
X-12.105 Y-9.184
X-11.956 Y-9.197
X-11.806 Y-9.198
X-11.657 Y-9.186
X-11.509 Y-9.162
X-11.363 Y-9.125
X-11.221 Y-9.078
X-11.084 Y-9.016
X-10.953 Y-8.943
X-10.829 Y-8.858
X-10.817 Y-8.848
X-10.627 Y-8.652
X-10.485 Y-8.421
X-10.395 Y-8.163
X-10.364 Y-7.893
X-10.391 Y-7.622
X-10.476 Y-7.364
X-10.601 Y-7.089
G3 X-11.026 Y-6.946 Z-1.8 I-0.284 J-0.141
G1 X-11.038 Y-6.952
X-11.244 Y-7.066
X-12.631 Y-7.83
X-12.849 Y-7.95
X-12.998 Y-8.032 Z-1.868
G3 X-13.163 Y-8.299 Z-2 I0.153 J-0.278
G1 Y-8.569
X-13.155 Y-8.719
X-13.101 Y-8.858
X-13.018 Y-8.984
X-12.917 Y-9.095
X-12.803 Y-9.192
X-12.678 Y-9.274
X-12.545 Y-9.344
X-12.406 Y-9.4
X-12.262 Y-9.443
X-12.115 Y-9.474
X-11.966 Y-9.492
X-11.816 Y-9.499
X-11.667 Y-9.494
X-11.517 Y-9.478
X-11.37 Y-9.45
X-11.226 Y-9.41
X-11.084 Y-9.359
X-10.949 Y-9.295
X-10.819 Y-9.22
X-10.696 Y-9.133
X-10.68 Y-9.12
X-10.494 Y-8.924
X-10.354 Y-8.693
X-10.267 Y-8.437
X-10.236 Y-8.169
X-10.264 Y-7.9
X-10.349 Y-7.644
X-10.476 Y-7.364
G3 X-10.901 Y-7.221 Z-1.8 I-0.284 J-0.141
G1 X-10.906 Y-7.223
X-11.122 Y-7.335
X-12.626 Y-8.11
X-12.847 Y-8.224
X-12.991 Y-8.298 Z-1.865
G3 X-13.163 Y-8.569 Z-2 I0.145 J-0.282
G1 Y-8.85
X-13.155 Y-9
X-13.099 Y-9.139
X-13.016 Y-9.264
X-12.916 Y-9.376
X-12.802 Y-9.474
X-12.678 Y-9.558
X-12.547 Y-9.63
X-12.409 Y-9.689
X-12.266 Y-9.735
X-12.12 Y-9.77
X-11.972 Y-9.793
X-11.822 Y-9.805
X-11.672 Y-9.806
X-11.523 Y-9.795
X-11.374 Y-9.774
X-11.228 Y-9.742
X-11.084 Y-9.698
X-10.944 Y-9.644
X-10.81 Y-9.577
X-10.681 Y-9.501
X-10.56 Y-9.412
X-10.535 Y-9.391
X-10.349 Y-9.19
X-10.21 Y-8.953
X-10.127 Y-8.692
X-10.102 Y-8.419
X-10.137 Y-8.147
X-10.231 Y-7.889
X-10.322 Y-7.702
X-10.349 Y-7.644
G3 X-10.772 Y-7.499 Z-1.801 I-0.284 J-0.141
G1 X-10.774 Y-7.501 Z-1.8
X-10.997 Y-7.609
X-12.622 Y-8.399
X-12.845 Y-8.508
X-12.984 Y-8.576 Z-1.862
G3 X-13.163 Y-8.85 Z-2 I0.139 J-0.286
G1 Y-9.117
X-13.155 Y-9.267
X-13.103 Y-9.407
X-13.024 Y-9.535
X-12.926 Y-9.649
X-12.815 Y-9.749
X-12.694 Y-9.837
X-12.564 Y-9.913
X-12.428 Y-9.976
X-12.287 Y-10.027
X-12.142 Y-10.067
X-11.995 Y-10.095
X-11.846 Y-10.113
X-11.696 Y-10.12
X-11.546 Y-10.116
X-11.397 Y-10.103
X-11.249 Y-10.078
X-11.103 Y-10.043
X-10.96 Y-9.998
X-10.821 Y-9.942
X-10.687 Y-9.875
X-10.558 Y-9.798
X-10.437 Y-9.71
X-10.323 Y-9.611
X-10.309 Y-9.597
X-10.142 Y-9.384
X-10.025 Y-9.141
X-9.962 Y-8.879
X-9.957 Y-8.608
X-10.01 Y-8.344
X-10.118 Y-8.096
X-10.164 Y-8.017
X-10.217 Y-7.917
X-10.231 Y-7.889
G3 X-10.645 Y-7.751 Z-1.807 I-0.28 J-0.15
G1 X-10.661 Y-7.759 Z-1.8
X-10.886 Y-7.864
X-12.619 Y-8.672
X-12.844 Y-8.777
X-12.979 Y-8.84 Z-1.86
G3 X-13.163 Y-9.117 Z-2 I0.134 J-0.288
G1 X-13.162 Y-9.399
X-13.155 Y-9.549
X-13.104 Y-9.69
X-13.026 Y-9.819
X-12.93 Y-9.934
X-12.821 Y-10.037
X-12.701 Y-10.127
X-12.573 Y-10.205
X-12.438 Y-10.271
X-12.299 Y-10.326
X-12.155 Y-10.37
X-12.009 Y-10.403
X-11.861 Y-10.425
X-11.711 Y-10.437
X-11.561 Y-10.439
X-11.411 Y-10.431
X-11.262 Y-10.413
X-11.115 Y-10.385
X-10.97 Y-10.347
X-10.828 Y-10.3
X-10.689 Y-10.243
X-10.555 Y-10.176
X-10.427 Y-10.098
X-10.305 Y-10.01
X-10.19 Y-9.913
X-10.083 Y-9.803
X-9.917 Y-9.547
X-9.819 Y-9.26
X-9.792 Y-8.956
X-9.84 Y-8.656
X-9.958 Y-8.376
X-10.118 Y-8.096
G3 X-10.522 Y-7.976 Z-1.815 I-0.27 J-0.167
G1 X-10.556 Y-7.992 Z-1.8
X-10.781 Y-8.097
X-12.619 Y-8.955
X-12.844 Y-9.06
X-12.979 Y-9.123 Z-1.86
G3 X-13.162 Y-9.399 Z-2 I0.134 J-0.288
G1 Y-9.431
X-13.156 Y-9.714
X-13.145 Y-9.863
X-13.09 Y-10.003
X-13.01 Y-10.13
X-12.914 Y-10.245
X-12.804 Y-10.347
X-12.684 Y-10.437
X-12.556 Y-10.516
X-12.422 Y-10.583
X-12.283 Y-10.639
X-12.14 Y-10.684
X-11.994 Y-10.719
X-11.846 Y-10.744
X-11.697 Y-10.759
X-11.547 Y-10.765
X-11.397 Y-10.76
X-11.248 Y-10.746
X-11.1 Y-10.723
X-10.953 Y-10.691
X-10.809 Y-10.649
X-10.668 Y-10.598
X-10.53 Y-10.538
X-10.397 Y-10.469
X-10.269 Y-10.391
X-10.149 Y-10.302
X-10.035 Y-10.204
X-9.929 Y-10.098
X-9.91 Y-10.075
X-9.75 Y-9.82
X-9.654 Y-9.534
X-9.63 Y-9.234
X-9.678 Y-8.936
X-9.795 Y-8.659
X-9.958 Y-8.376
G3 X-10.358 Y-8.254 Z-1.817 I-0.27 J-0.167
G1 X-10.396 Y-8.271 Z-1.8
X-10.622 Y-8.373
X-12.617 Y-9.27
X-12.843 Y-9.371
X-12.969 Y-9.428 Z-1.855
G3 X-13.156 Y-9.714 Z-2 I0.13 J-0.29
G1 X-13.152 Y-9.903
X-13.141 Y-10.028
X-13.122 Y-10.177
X-13.067 Y-10.317
X-12.988 Y-10.444
X-12.891 Y-10.559
X-12.782 Y-10.661
X-12.662 Y-10.752
X-12.535 Y-10.831
X-12.401 Y-10.899
X-12.262 Y-10.956
X-12.12 Y-11.003
X-11.975 Y-11.04
X-11.827 Y-11.067
X-11.678 Y-11.085
X-11.528 Y-11.093
X-11.378 Y-11.092
X-11.229 Y-11.082
X-11.08 Y-11.063
X-10.933 Y-11.035
X-10.787 Y-10.999
X-10.644 Y-10.954
X-10.504 Y-10.9
X-10.367 Y-10.838
X-10.235 Y-10.767
X-10.108 Y-10.687
X-9.988 Y-10.597
X-9.875 Y-10.499
X-9.77 Y-10.392
X-9.742 Y-10.358
X-9.578 Y-10.097
X-9.484 Y-9.803
X-9.463 Y-9.496
X-9.518 Y-9.193
X-9.646 Y-8.912
X-9.713 Y-8.803
X-9.795 Y-8.659
G3 X-10.19 Y-8.535 Z-1.819 I-0.27 J-0.167
G1 X-10.234 Y-8.553 Z-1.8
X-10.462 Y-8.652
X-12.617 Y-9.579
X-12.845 Y-9.677
X-12.95 Y-9.722 Z-1.846
G3 X-13.141 Y-10.028 Z-2 I0.125 J-0.292
G1 X-13.139 Y-10.06
X-13.091 Y-10.422
X-13.064 Y-10.569
X-12.996 Y-10.703
X-12.908 Y-10.824
X-12.804 Y-10.933
X-12.69 Y-11.03
X-12.566 Y-11.115
X-12.436 Y-11.189
X-12.3 Y-11.252
X-12.159 Y-11.305
X-12.016 Y-11.349
X-11.87 Y-11.382
X-11.722 Y-11.406
X-11.572 Y-11.421
X-11.422 Y-11.427
X-11.272 Y-11.424
X-11.123 Y-11.413
X-10.974 Y-11.393
X-10.827 Y-11.365
X-10.681 Y-11.329
X-10.538 Y-11.285
X-10.398 Y-11.232
X-10.261 Y-11.171
X-10.128 Y-11.101
X-9.999 Y-11.024
X-9.876 Y-10.938
X-9.761 Y-10.842
X-9.652 Y-10.739
X-9.553 Y-10.626
X-9.53 Y-10.596
X-9.381 Y-10.334
X-9.299 Y-10.044
X-9.288 Y-9.743
X-9.349 Y-9.448
X-9.479 Y-9.176
X-9.633 Y-8.934
X-9.646 Y-8.912
G3 X-10.042 Y-8.799 Z-1.82 I-0.265 J-0.175
G1 X-10.087 Y-8.819 Z-1.8
X-10.313 Y-8.922
X-12.585 Y-9.956
X-12.811 Y-10.059
X-12.907 Y-10.103 Z-1.842
G3 X-13.091 Y-10.422 Z-2 I0.132 J-0.289
G1 X-13.051 Y-10.728
X-13.047 Y-10.76
X-13.038 Y-10.803
X-13.007 Y-10.892
X-12.997 Y-10.915
G3 X-12.577 Y-11.073 Z-1.8 I0.289 J0.131
X-12.431 Y-10.63 I-0.131 J0.289
G1 X-12.447 Y-10.6
G3 X-12.773 Y-10.441 I-0.277 J-0.154
X-13.038 Y-10.803 Z-2 I0.048 J-0.314
G1 X-13.026 Y-10.846
X-12.993 Y-10.927
X-12.929 Y-11.062
X-12.836 Y-11.18
X-12.73 Y-11.286
X-12.613 Y-11.38
X-12.488 Y-11.463
X-12.356 Y-11.534
X-12.219 Y-11.596
X-12.078 Y-11.647
X-11.934 Y-11.688
X-11.787 Y-11.72
X-11.639 Y-11.744
X-11.49 Y-11.758
X-11.34 Y-11.764
X-11.19 Y-11.761
X-11.04 Y-11.75
X-10.892 Y-11.732
X-10.744 Y-11.705
X-10.598 Y-11.67
X-10.454 Y-11.627
X-10.313 Y-11.577
X-10.175 Y-11.518
X-10.04 Y-11.452
X-9.91 Y-11.378
X-9.784 Y-11.296
X-9.664 Y-11.206
X-9.552 Y-11.107
X-9.446 Y-11
X-9.349 Y-10.886
X-9.321 Y-10.845
X-9.177 Y-10.573
X-9.103 Y-10.274
X-9.104 Y-9.966
X-9.181 Y-9.668
X-9.327 Y-9.398
X-9.431 Y-9.252
X-9.479 Y-9.176
G3 X-9.882 Y-9.071 Z-1.818 I-0.262 J-0.18
G1 X-9.922 Y-9.091 Z-1.8
X-10.145 Y-9.201
X-12.584 Y-10.407
X-12.807 Y-10.517
X-12.836 Y-10.531 Z-1.813
G3 X-12.993 Y-10.927 Z-2 I0.141 J-0.285
G1 X-12.843 Y-11.289
X-12.779 Y-11.425
X-12.689 Y-11.545
X-12.583 Y-11.651
X-12.465 Y-11.744
X-12.339 Y-11.824
X-12.206 Y-11.893
X-12.067 Y-11.951
X-11.925 Y-11.999
X-11.78 Y-12.037
X-11.633 Y-12.066
X-11.484 Y-12.086
X-11.335 Y-12.097
X-11.185 Y-12.1
X-11.035 Y-12.095
X-10.885 Y-12.081
X-10.737 Y-12.06
X-10.59 Y-12.031
X-10.444 Y-11.994
X-10.301 Y-11.95
X-10.16 Y-11.898
X-10.022 Y-11.839
X-9.888 Y-11.772
X-9.758 Y-11.698
X-9.632 Y-11.616
X-9.511 Y-11.527
X-9.397 Y-11.43
X-9.291 Y-11.324
X-9.191 Y-11.212
X-9.102 Y-11.091
X-9.085 Y-11.064
X-8.96 Y-10.798
X-8.901 Y-10.51
X-8.911 Y-10.216
X-8.988 Y-9.932
X-9.13 Y-9.675
X-9.327 Y-9.398
G3 X-9.729 Y-9.311 Z-1.821 I-0.252 J-0.193
G1 X-9.774 Y-9.335 Z-1.8
X-9.993 Y-9.452
X-12.439 Y-10.761
X-12.658 Y-10.878
X-12.695 Y-10.898 Z-1.817
G3 X-12.843 Y-11.289 Z-2 I0.15 J-0.28
G1 X-12.766 Y-11.475
X-12.732 Y-11.553
X-12.709 Y-11.593
X-12.68 Y-11.632
X-12.523 Y-11.837
X-12.426 Y-11.951
X-12.316 Y-12.054
X-12.194 Y-12.141
X-12.064 Y-12.214
X-11.927 Y-12.276
X-11.786 Y-12.326
X-11.641 Y-12.366
X-11.494 Y-12.395
X-11.345 Y-12.416
X-11.196 Y-12.427
X-11.046 Y-12.429
X-10.896 Y-12.424
X-10.746 Y-12.41
X-10.598 Y-12.388
X-10.451 Y-12.359
X-10.305 Y-12.322
X-10.162 Y-12.278
X-10.021 Y-12.227
X-9.883 Y-12.168
X-9.748 Y-12.102
X-9.617 Y-12.029
X-9.491 Y-11.948
X-9.369 Y-11.861
X-9.252 Y-11.767
X-9.143 Y-11.664
X-9.041 Y-11.554
X-8.947 Y-11.437
X-8.863 Y-11.313
X-8.852 Y-11.294
X-8.74 Y-11.026
X-8.693 Y-10.739
X-8.713 Y-10.449
X-8.799 Y-10.171
X-8.947 Y-9.921
X-9.079 Y-9.746
X-9.13 Y-9.675
G3 X-9.549 Y-9.598 Z-1.813 I-0.252 J-0.193
G1 X-9.575 Y-9.615 Z-1.8
X-9.787 Y-9.745
X-12.238 Y-11.263
X-12.432 Y-11.382
X-12.449 Y-11.394
G3 X-12.523 Y-11.837 Z-2 I0.185 J-0.258
G1 X-12.261 Y-12.179
X-12.22 Y-12.225
X-12.179 Y-12.261
X-11.974 Y-12.418
X-11.85 Y-12.503
X-11.718 Y-12.574
X-11.579 Y-12.63
X-11.436 Y-12.674
X-11.289 Y-12.706
X-11.141 Y-12.727
X-10.991 Y-12.739
X-10.841 Y-12.741
X-10.691 Y-12.734
X-10.542 Y-12.719
X-10.394 Y-12.696
X-10.247 Y-12.665
X-10.102 Y-12.627
X-9.959 Y-12.581
X-9.819 Y-12.527
X-9.682 Y-12.467
X-9.548 Y-12.399
X-9.417 Y-12.325
X-9.292 Y-12.244
X-9.17 Y-12.155
X-9.055 Y-12.06
X-8.945 Y-11.958
X-8.843 Y-11.847
X-8.749 Y-11.73
X-8.664 Y-11.607
X-8.643 Y-11.57
X-8.531 Y-11.302
X-8.483 Y-11.015
X-8.503 Y-10.725
X-8.589 Y-10.447
X-8.737 Y-10.197
X-8.947 Y-9.921
G3 X-9.39 Y-9.873 Z-1.801 I-0.246 J-0.201
G1 X-9.393 Y-9.875 Z-1.8
X-9.588 Y-10.03
X-11.827 Y-11.811
X-11.969 Y-11.924
X-12.017 Y-11.971
G3 X-11.974 Y-12.418 Z-2 I0.245 J-0.202
G1 X-11.632 Y-12.68
X-11.593 Y-12.709
X-11.553 Y-12.732
X-11.475 Y-12.766
X-11.205 Y-12.878
X-11.064 Y-12.928
X-10.919 Y-12.967
X-10.771 Y-12.991
X-10.621 Y-13.002
X-10.471
X-10.322 Y-12.991
X-10.173 Y-12.971
X-10.026 Y-12.942
X-9.881 Y-12.905
X-9.738 Y-12.859
X-9.598 Y-12.806
X-9.461 Y-12.745
X-9.327 Y-12.677
X-9.197 Y-12.601
X-9.072 Y-12.519
X-8.951 Y-12.43
X-8.836 Y-12.333
X-8.727 Y-12.23
X-8.627 Y-12.119
X-8.533 Y-12.002
X-8.449 Y-11.878
X-8.42 Y-11.826
X-8.305 Y-11.54
X-8.263 Y-11.234
X-8.297 Y-10.927
X-8.405 Y-10.638
X-8.581 Y-10.384
G3 X-9.02 Y-10.364 Z-1.805 I-0.23 J-0.219
G1 X-9.03 Y-10.373 Z-1.8
X-9.216 Y-10.537
X-11.197 Y-12.275
X-11.283 Y-12.35
X-11.328 Y-12.399
X-11.362 Y-12.457
G3 X-11.205 Y-12.878 Z-2 I0.289 J-0.131
G1 X-10.846 Y-13.026
X-10.803 Y-13.038
X-10.76 Y-13.047
X-10.17 Y-13.124
X-10.02 Y-13.136
X-9.87 Y-13.135
X-9.721 Y-13.118
X-9.574 Y-13.089
X-9.43 Y-13.048
X-9.288 Y-12.998
X-9.151 Y-12.937
X-9.018 Y-12.869
X-8.889 Y-12.791
X-8.766 Y-12.706
X-8.648 Y-12.613
X-8.537 Y-12.512
X-8.433 Y-12.404
X-8.338 Y-12.288
X-8.251 Y-12.166
X-8.175 Y-12.037
X-8.164 Y-12.014
X-8.068 Y-11.735
X-8.04 Y-11.442
X-8.08 Y-11.15
X-8.188 Y-10.876
X-8.357 Y-10.635
G3 X-8.806 Y-10.624 Z-1.8 I-0.23 J-0.219
G1 X-8.837 Y-10.658
X-8.961 Y-10.818
X-10.312 Y-12.545
X-10.367 Y-12.616
X-10.396 Y-12.66
X-10.417 Y-12.708
X-10.43 Y-12.759
G3 X-10.17 Y-13.124 Z-2 I0.313 J-0.052
G1 X-10.06 Y-13.139
X-9.903 Y-13.152
X-9.431 Y-13.162
X-9.384
X-9.234 Y-13.155
X-9.086 Y-13.132
X-8.941 Y-13.092
X-8.801 Y-13.038
X-8.667 Y-12.971
X-8.539 Y-12.893
X-8.417 Y-12.805
X-8.303 Y-12.708
X-8.197 Y-12.602
X-8.14 Y-12.535
X-7.974 Y-12.278
X-7.872 Y-11.989
X-7.841 Y-11.685
X-7.882 Y-11.382
X-7.994 Y-11.097
X-8.169 Y-10.846
G3 X-8.618 Y-10.836 Z-1.8 I-0.23 J-0.219
G1 X-8.65 Y-10.872
X-8.677 Y-10.913
X-8.749 Y-11.045
X-9.603 Y-12.605
X-9.651 Y-12.693
X-9.671 Y-12.738
X-9.684 Y-12.785
X-9.69 Y-12.834
G3 X-9.384 Y-13.162 Z-2 I0.317 J-0.011
G1 X-8.834 Y-13.163
X-8.685 Y-13.155
X-8.539 Y-13.12
X-8.399 Y-13.066
X-8.266 Y-12.996
X-8.143 Y-12.91
X-8.029 Y-12.813
X-7.926 Y-12.704
X-7.834 Y-12.586
X-7.824 Y-12.57
X-7.7 Y-12.314
X-7.638 Y-12.036
X-7.64 Y-11.752
X-7.705 Y-11.475
X-7.831 Y-11.221
X-8.012 Y-11.001
G3 X-8.46 Y-11.023 Z-1.8 I-0.213 J-0.236
G1 X-8.496 Y-11.072
X-8.522 Y-11.126
X-8.567 Y-11.245
X-9.07 Y-12.598
X-9.121 Y-12.734
X-9.135 Y-12.784
X-9.141 Y-12.834
G3 X-8.834 Y-13.163 Z-2 I0.317 J-0.011
G1 X-8.441
X-8.291 Y-13.155
X-8.145 Y-13.12
X-8.008 Y-13.059
X-7.881 Y-12.979
X-7.685 Y-12.767
X-7.545 Y-12.514
X-7.468 Y-12.235
X-7.46 Y-11.946
X-7.52 Y-11.663
X-7.645 Y-11.402
X-7.829 Y-11.178
G3 X-8.277 Y-11.203 Z-1.8 I-0.212 J-0.237
G1 X-8.307 Y-11.242
X-8.33 Y-11.285
X-8.347 Y-11.331
X-8.373 Y-11.428
X-8.69 Y-12.593
X-8.736 Y-12.762
X-8.743 Y-12.798
X-8.747 Y-12.834
G3 X-8.441 Y-13.163 Z-2 I0.317 J-0.011
G1 X-8.048
X-7.899 Y-13.155
X-7.76 Y-13.098
X-7.636 Y-13.014
X-7.525 Y-12.913
X-7.371 Y-12.666
X-7.285 Y-12.388
X-7.273 Y-12.098
X-7.334 Y-11.814
X-7.466 Y-11.555
X-7.659 Y-11.337
G3 X-8.105 Y-11.384 Z-1.8 I-0.2 J-0.247
G1 X-8.137 Y-11.431
X-8.16 Y-11.484
X-8.173 Y-11.539
X-8.184 Y-11.615
X-8.322 Y-12.588
X-8.352 Y-12.801
X-8.355 Y-12.834
G3 X-8.048 Y-13.163 Z-2 I0.317 J-0.011
G1 X-7.779
X-7.629 Y-13.155
X-7.492 Y-13.094
